!!!COM: Bach, Johann Sebastian
!!!OPR: Six Concerts Avec plusieurs ... le prince regnant d'Anhalt-Coethen
!!!OTL: Brandenburgische Konzerte F
!!!XEN: Brandenburg Concerto No. 2 in F major.
!!!OMV: Movement 1.
!!!SCT: BWV 1047
!!!YEC: Copyright 1994, Center for Computer Assisted Research in the Humanities
!!!YEM: Rights to all derivative electronic formats reserved.
!!!YEM: Refer to licensing agreement for further details.
!! For the following instrumentation: Tromba, Flauto Dolce (soprano),
!!    Oboe, Violino, Violino di ripieno I & II, Viola di ripieno,
!!    Violoncello, Violone di ripieno, Cembalo all'unisono
!! [Allegro]
**kern	**kern	**kern	**kern	**kern	**kern	**kern	**kern	**kern	**kern
*ICklav	*ICstr	*ICstr	*ICstr	*ICstr	*ICstr	*ICstr	*ICww	*ICww	*ICbras
*Icemba	*Icello	*Icbass	*Iviola	*Ivioln	*Ivioln	*Ivioln	*Ioboe	*Ifltds	*Itromp
*IGcont	*IGcont	*	*	*	*	*	*	*	*
*IGripn	*IGripn	*IGripn	*IGripn	*IGripn	*IGripn	*IGconc	*IGconc	*IGconc	*IGconc
!cembal	!'cello	!Bd'rip	!Vd'rip	!v'lin2	!v'lin1	!v'lino	!oboe	!flauto	!tromba
*k[b-]	*k[b-]	*k[b-]	*k[b-]	*k[b-]	*k[b-]	*k[b-]	*k[b-]	*k[b-]	*k[]
*F:	*F:	*F:	*F:	*F:	*F:	*F:	*F:	*F:	*F:
*M2/2	*M2/2	*M2/2	*M2/2	*M2/2	*M2/2	*M2/2	*M2/2	*M2/2	*M2/2
*MM54	*MM54	*MM54	*MM54	*MM54	*MM54	*MM54	*MM54	*MM54	*MM54
*clefF4	*clefF4	*clefF4	*clefC3	*clefG2	*clefG2	*clefG2	*clefG2	*clefG2	*clefG2
8FF/	8FF/	8FFF/	8a\	8cc\	8ff\	8ff\	8ff\	8ff\	8f/
=1	=1	=1	=1	=1	=1	=1	=1	=1	=1
16F\LL	16F\LL	16FF\LL	8f\L	8a/L	8cc\L	8cc\L	8cc\L	8cc\L	8a/L
16G\	16G\	16GG\	.	.	.	.	.	.	.
16A\	16A\	16AA\	8c\	16f/LL	16a\LL	16a\LL	16a\LL	16a\LL	8cc/
16G\JJ	16G\JJ	16GG\JJ	.	16g/JJ	16b-\JJ	16b-\JJ	16b-\JJ	16b-\JJ	.
16F\LL	16F\LL	16FF\LL	8f\	8a/L	8cc\L	8cc\L	8cc\L	8cc\L	8a/
16G\	16G\	16GG\	.	.	.	.	.	.	.
16A\	16A\	16AA\	8c\J	16f/LL	16a\LL	16a\LL	16a\LL	16a\LL	8f/J
16G\JJ	16G\JJ	16GG\JJ	.	16g/JJ	16b-\JJ	16b-\JJ	16b-\JJ	16b-\JJ	.
16F\LL	16F\LL	16FF\LL	8f\L	8a/L	8cc\L	8cc\L	8cc\L	8cc\L	8a/L
16E\	16E\	16EE\	.	.	.	.	.	.	.
16F\	16F\	16FF\	8a\	8cc/	8ff\	8ff\	8ff\	8ff\	8cc/
16G\JJ	16G\JJ	16GG\JJ	.	.	.	.	.	.	.
16A\LL	16A\LL	16AA\LL	8cc\	8f/	8cc\	8cc\	8cc\	8cc\	8ff/
16B-\	16B-\	16BB-\	.	.	.	.	.	.	.
16A\	16A\	16AA\	8c\J	8cc/J	8ff\J	8ff\J	8ff\J	8ff\J	8cc/J
16G\JJ	16G\JJ	16GG\JJ	.	.	.	.	.	.	.
=2	=2	=2	=2	=2	=2	=2	=2	=2	=2
16F\LL	16F\LL	16FF\LL	8f\L	8a/L	8cc\L	8cc\L	8cc\L	8cc\L	8a/L
16G\	16G\	16GG\	.	.	.	.	.	.	.
16A\	16A\	16AA\	8c\	16f/LL	16a\LL	16a\LL	16a\LL	16a\LL	8cc/
16G\JJ	16G\JJ	16GG\JJ	.	16g/JJ	16b-\JJ	16b-\JJ	16b-\JJ	16b-\JJ	.
16F\LL	16F\LL	16FF\LL	8f\	8a/L	8cc\L	8cc\L	8cc\L	8cc\L	8a/
16G\	16G\	16GG\	.	.	.	.	.	.	.
16A\	16A\	16AA\	8c\J	16f/LL	16a\LL	16a\LL	16a\LL	16a\LL	8f/J
16G\JJ	16G\JJ	16GG\JJ	.	16g/JJ	16b-\JJ	16b-\JJ	16b-\JJ	16b-\JJ	.
16F\LL	16F\LL	16FF\LL	8f\L	8a/L	8cc\L	8cc\L	8cc\L	8cc\L	8a/L
16E\	16E\	16EE\	.	.	.	.	.	.	.
16F\	16F\	16FF\	8a\	8cc/	8ff\	8ff\	8ff\	8ff\	8cc/J
16G\JJ	16G\JJ	16GG\JJ	.	.	.	.	.	.	.
8A\J	8A\J	8AA\J	8cc\J	8f/J	8cc\J	8cc\J	8cc\J	8cc\J	16ff\LL
.	.	.	.	.	.	.	.	.	16gg\
8F\	8F\	8FF\	8a\	8cc\	8ff\	8ff\	8ff\	8ff\	16aa\
.	.	.	.	.	.	.	.	.	16bb-\JJ
=3	=3	=3	=3	=3	=3	=3	=3	=3	=3
8E\L	8E\L	8EE\L	8g\L	16cc\LL	16gg\LL	16gg\LL	16gg\LL	16gg\LL	8ccc\L
.	.	.	.	16dd\	16ff\	16ff\	16ff\	16ff\	.
8G\	8G\	8GG\	8b-\	16ee\	16gg\	16gg\	16gg\	16gg\	8ccc\
.	.	.	.	16ff\JJ	16aa\JJ	16aa\JJ	16aa\JJ	16aa\JJ	.
8C\	8C\	8CC\	8e\	8gg\L	16bb-\LL	16bb-\LL	16bb-\LL	16bb-\LL	8ccc\
.	.	.	.	.	16aa\	16aa\	16aa\	16aa\	.
8F\J	8F\J	8FF\J	8cc\J	8ff\J	16bb-\	16bb-\	16bb-\	16bb-\	8ccc\J
.	.	.	.	.	16aa\JJ	16aa\JJ	16aa\JJ	16aa\JJ	.
8E\L	8E\L	8EE\L	4g\	4cc\	16gg\LL	16gg\LL	16gg\LL	16gg\LL	[2cccT\
.	.	.	.	.	16ff\	16ff\	16ff\	16ff\	.
8G\	8G\	8GG\	.	.	16ee\	16ee\	16ee\	16ee\	.
.	.	.	.	.	16dd\JJ	16dd\JJ	16dd\JJ	16dd\JJ	.
8C\	8C\	8CC\	8r	8r	16cc\LL	16cc\LL	16cc\LL	16cc\LL	.
.	.	.	.	.	16ff\	16ff\	16ff\	16ff\	.
8A\J	8A\J	8AA\J	8a\	8cc\	16ee\	16ee\	16ee\	16ee\	.
.	.	.	.	.	16ff\JJ	16ff\JJ	16ff\JJ	16ff\JJ	.
=4	=4	=4	=4	=4	=4	=4	=4	=4	=4
8E\L	8E\L	8EE\L	8g\L	16cc\LL	16gg\LL	16gg\LL	16gg\LL	16gg\LL	2.cccTz\]
.	.	.	.	16dd\	16ff\	16ff\	16ff\	16ff\	.
8G\	8G\	8GG\	8b-\	16ee\	16gg\	16gg\	16gg\	16gg\	.
.	.	.	.	16ff\JJ	16aa\JJ	16aa\JJ	16aa\JJ	16aa\JJ	.
8C\	8C\	8CC\	8e\	8gg\L	16bb-\LL	16bb-\LL	16bb-\LL	16bb-\LL	.
.	.	.	.	.	16aa\	16aa\	16aa\	16aa\	.
8F\J	8F\J	8FF\J	8cc\J	8ff\J	16bb-\	16bb-\	16bb-\	16bb-\	.
.	.	.	.	.	16aa\JJ	16aa\JJ	16aa\JJ	16aa\JJ	.
8E\L	8E\L	8EE\L	4g\	4cc\	16gg\LL	16gg\LL	16gg\LL	16gg\LL	.
.	.	.	.	.	16ff\	16ff\	16ff\	16ff\	.
8G\	8G\	8GG\	.	.	16ee\	16ee\	16ee\	16ee\	.
.	.	.	.	.	16dd\JJ	16dd\JJ	16dd\JJ	16dd\JJ	.
8C\	8C\	8CC\	8r	8r	16cc\LL	16cc\LL	16cc\LL	16cc\LL	8r
.	.	.	.	.	16b-\	16b-\	16b-\	16b-\	.
8BB-\J	8BB-\J	8BBB-\J	16c/LL	16f/LL	16a\	16a\	16a\	16a\	8ff\
.	.	.	16B-/JJ	16e/JJ	16g\JJ	16g\JJ	16g\JJ	16g\JJ	.
=5	=5	=5	=5	=5	=5	=5	=5	=5	=5
8AA/L	8AA/L	8AAA/L	8c/L	8f/L	8f/L	8f/L	8f/L	8f/L	8ff/L
8FF/	8FF/	8FFF/	16c/LL	16f/LL	16a/LL	16a/LL	16a/LL	16a/LL	8cc/
.	.	.	16B-/JJ	16e/JJ	16g/JJ	16g/JJ	16g/JJ	16g/JJ	.
8AA/	8AA/	8AAA/	8A/L	8f/L	8f/L	8f/L	8f/L	8f/L	8cc/
8C/J	8C/J	8CC/J	16A/LL	16f/LL	16cc/LL	16cc/LL	16cc/LL	16cc/LL	8a/J
.	.	.	16G/JJ	16e/JJ	16b-/JJ	16b-/JJ	16b-/JJ	16b-/JJ	.
8F/L	8F/L	8FF/L	8F/L	8f/L	8a\L	8a\L	8a\L	8a\L	8a/L
8C/	8C/	8CC/	16A/LL	16f/LL	8ff\J	8ff\J	8ff\J	8ff\J	8f/
.	.	.	16G/JJ	16e/JJ	.	.	.	.	.
8AA/	8AA/	8AAA/	8F/L	8f/L	16cc\LL	16cc\LL	16cc\LL	16cc\LL	8f/
.	.	.	.	.	16b-\	16b-\	16b-\	16b-\	.
8C/J	8C/J	8CC/J	16c/LL	16f/LL	16a\	16a\	16a\	16a\	8ff/J
.	.	.	16B-/JJ	16e/JJ	16g\JJ	16g\JJ	16g\JJ	16g\JJ	.
=6	=6	=6	=6	=6	=6	=6	=6	=6	=6
8AA/L	8AA/L	8AAA/L	8c/L	8f/L	8f/L	8f/L	8f/L	8f/L	8ff/L
8FF/	8FF/	8FFF/	16c/LL	16f/LL	16a/LL	16a/LL	16a/LL	16a/LL	8cc/
.	.	.	16B-/JJ	16e/JJ	16g/JJ	16g/JJ	16g/JJ	16g/JJ	.
8AA/	8AA/	8AAA/	8A/L	8f/L	8f/L	8f/L	8f/L	8f/L	8cc/
8C/J	8C/J	8CC/J	16A/LL	16f/LL	16cc/LL	16cc/LL	16cc/LL	16cc/LL	8a/J
.	.	.	16G/JJ	16e/JJ	16b-/JJ	16b-/JJ	16b-/JJ	16b-/JJ	.
8F/L	8F/L	8FF/L	8F/L	8f/L	8a\L	8a\L	8a\L	8a\L	8a/L
8C/	8C/	8CC/	16A/LL	16f/LL	8ff\J	8ff\J	8ff\J	8ff\J	8f/J
.	.	.	16G/JJ	16e/JJ	.	.	.	.	.
8AA/	8AA/	8AAA/	8F\L	8f/L	16cc\LL	16cc\LL	16cc\LL	16cc\LL	8f/L
.	.	.	.	.	16dd\	16dd\	16dd\	16dd\	.
8FF/J	8FF/J	8FFF/J	8a\J	8cc/J	16ee\	16ee\	16ee\	16ee\	16cc/LL
.	.	.	.	.	16ff\JJ	16ff\JJ	16ff\JJ	16ff\JJ	16cc/JJ
=7	=7	=7	=7	=7	=7	=7	=7	=7	=7
8C/L	8C/L	8CC/L	8g\	8ee\	16gg\LL	16gg\LL	16gg\LL	16gg\LL	4cc/
.	.	.	.	.	16aa\	16aa\	16aa\	16aa\	.
8EE/	8EE/	8EEE/	4c\	4gg\	16bb-\	16bb-\	16bb-\	16bb-\	.
.	.	.	.	.	16gg\JJ	16gg\JJ	16gg\JJ	16gg\JJ	.
8FF/	8FF/	8FFF/	.	.	16aa\LL	16aa\LL	16aa\LL	16aa\LL	8r
.	.	.	.	.	16ff\	16ff\	16ff\	16ff\	.
8AA/J	8AA/J	8AAA/J	8a\	8ff\	16cc\	16cc\	16cc\	16cc\	16cc/LL
.	.	.	.	.	16ff\JJ	16ff\JJ	16ff\JJ	16ff\JJ	16cc/JJ
8C/L	8C/L	8CC/L	8g\	8ee\L	16gg\LL	16gg\LL	16gg\LL	16gg\LL	4cc/
.	.	.	.	.	16aa\	16aa\	16aa\	16aa\	.
8EE/	8EE/	8EEE/	4c\	8gg\	16bb-\	16bb-\	16bb-\	16bb-\	.
.	.	.	.	.	16gg\JJ	16gg\JJ	16gg\JJ	16gg\JJ	.
8FF/	8FF/	8FFF/	.	8ff\	16aa\LL	16aa\LL	16aa\LL	16aa\LL	8r
.	.	.	.	.	16ff\JJ	16ff\JJ	16ff\JJ	16ff\JJ	.
8E/J	8E/J	8EE/J	8B-/	8gg\J	8ccc\J	8ccc\J	8ccc\J	8ccc\J	16cc/LL
.	.	.	.	.	.	.	.	.	16cc/JJ
=8	=8	=8	=8	=8	=8	=8	=8	=8	=8
8F/L	8F/L	8FF/L	8f\L	8cc/L	(16bb-\LL	(16bb-\LL	(16bb-\LL	(16bb-\LL	8cc/L
.	.	.	.	.	16aa\)	16aa\)	16aa\)	16aa\)	.
8BB-/	8BB-/	8BBB-/	8d\	8b-/	(16gg\	(16gg\	(16gg\	(16gg\	16ff/LL
.	.	.	.	.	16ff\JJ)	16ff\JJ)	16ff\JJ)	16ff\JJ)	16cc/JJ
8C/	8C/	8CC/	8c\	8a/	8cc\L	8cc\L	8cc\L	8cc\L	16a/LL
.	.	.	.	.	.	.	.	.	16f/JJ
8CC/J	8CC/J	8CCC/J	8c\J	8g/J	8eet\J	8eet\J	8eet\J	8eet\J	8cc/J
8FF/	8FF/	4FFF/	4c\	4a/	4ff\	4ff\	8ff\L	8ff\L	4a/
8GG/L	8GG/L	.	.	.	.	.	16ee\LL	16ee\LL	.
.	.	.	.	.	.	.	16dd\JJ	16dd\JJ	.
8AA/	8AA/	4r	4r	4r	4r	8r	16cc\LL	16cc\LL	4r
.	.	.	.	.	.	.	16b-\	16b-\	.
8FF/J	8FF/J	.	.	.	.	8cc\	16a\	16a\	.
.	.	.	.	.	.	.	16g\JJ	16g\JJ	.
=9	=9	=9	=9	=9	=9	=9	=9	=9	=9
8BB-/L	8BB-/L	1r	1r	1r	1r	16dd\LL	8f/	8f/	1r
.	.	.	.	.	.	16ee\	.	.	.
8AA/	8AA/	.	.	.	.	16dd\	8r	8r	.
.	.	.	.	.	.	16ee\JJ	.	.	.
8GG/	8GG/	.	.	.	.	8.eet\L	4r	4r	.
8C/J	8C/J	.	.	.	.	.	.	.	.
.	.	.	.	.	.	32dd\LLL	.	.	.
.	.	.	.	.	.	32ee\JJJ	.	.	.
8AA/L	8AA/L	.	.	.	.	8ff\L	2r	2r	.
8GG/	8GG/	.	.	.	.	16f\LL	.	.	.
.	.	.	.	.	.	16g\JJ	.	.	.
8FF/	8FF/	.	.	.	.	16a\LL	.	.	.
.	.	.	.	.	.	16b-\	.	.	.
8F/J	8F/J	.	.	.	.	16cc\	.	.	.
.	.	.	.	.	.	16a\JJ	.	.	.
=10	=10	=10	=10	=10	=10	=10	=10	=10	=10
8BB-/	8BB-/	2r	2r	2r	2r	16dd/LL	2r	2r	2r
.	.	.	.	.	.	16b-/	.	.	.
8r	8r	.	.	.	.	16g/	.	.	.
.	.	.	.	.	.	16b-/JJ	.	.	.
8C/	8C/	.	.	.	.	16e/LL	.	.	.
.	.	.	.	.	.	16g/	.	.	.
8r	8r	.	.	.	.	16cc/	.	.	.
.	.	.	.	.	.	16b-/JJ	.	.	.
8FF/	8FF/	4r	4r	4r	4r	16a/LL	4r	4r	4r
.	.	.	.	.	.	16b-/	.	.	.
16F\LL	16F\LL	.	.	.	.	16cc/	.	.	.
16G\JJ	16G\JJ	.	.	.	.	16a/JJ	.	.	.
16A\LL	16A\LL	8r	8r	8r	8r	8f/J	8r	8r	8r
16B-\	16B-\	.	.	.	.	.	.	.	.
16A\	16A\	8FFF/	8a\	8cc\	8ff\	8ff\	8ff\	8ff\	8f/
16G\JJ	16G\JJ	.	.	.	.	.	.	.	.
=11	=11	=11	=11	=11	=11	=11	=11	=11	=11
16F\LL	16F\LL	16FF\LL	8f\L	8a/L	8cc\L	8cc\L	8cc\L	8cc\L	8a/L
16G\	16G\	16GG\	.	.	.	.	.	.	.
16A\	16A\	16AA\	8c\	16f/LL	16a\LL	16a\LL	16a\LL	16a\LL	8cc/
16G\JJ	16G\JJ	16GG\JJ	.	16g/JJ	16b-\JJ	16b-\JJ	16b-\JJ	16b-\JJ	.
16F\LL	16F\LL	16FF\LL	8f\	8a/L	8cc\L	8cc\L	8cc\L	8cc\L	8a/
16G\	16G\	16GG\	.	.	.	.	.	.	.
16A\	16A\	16AA\	8c\J	16f/LL	16a\LL	16a\LL	16a\LL	16a\LL	8f/J
16G\JJ	16G\JJ	16GG\JJ	.	16g/JJ	16b-\JJ	16b-\JJ	16b-\JJ	16b-\JJ	.
16F\LL	16F\LL	16FF\LL	8f\L	8a/L	8cc\L	8cc\L	8cc\L	8cc\L	8a/L
16E\	16E\	16EE\	.	.	.	.	.	.	.
16F\	16F\	16FF\	8a\	8cc/	8ff\	8ff\	8ff\	8ff\	8cc/
16G\JJ	16G\JJ	16GG\JJ	.	.	.	.	.	.	.
16A\LL	16A\LL	16AA\LL	8cc\	8f/	8cc\	8cc\	8cc\	8cc\	8ff/
16B-\	16B-\	16BB-\	.	.	.	.	.	.	.
16A\	16A\	16AA\	8c\J	8cc/J	8ff\J	8ff\J	8ff\J	8ff\J	8cc/J
16G\JJ	16G\JJ	16GG\JJ	.	.	.	.	.	.	.
=12	=12	=12	=12	=12	=12	=12	=12	=12	=12
16F\LL	16F\LL	16FF\LL	8f\L	8a/L	8cc\L	8cc\L	8cc\L	8cc\L	8a/L
16G\	16G\	16GG\	.	.	.	.	.	.	.
16A\	16A\	16AA\	8c\	16f/LL	16a\LL	16a\LL	16a\LL	16a\LL	8cc/
16G\JJ	16G\JJ	16GG\JJ	.	16g/JJ	16b-\JJ	16b-\JJ	16b-\JJ	16b-\JJ	.
16F\LL	16F\LL	16FF\LL	8f\	8a/L	8cc\L	8cc\L	8cc\L	8cc\L	8a/
16G\	16G\	16GG\	.	.	.	.	.	.	.
16A\	16A\	16AA\	8c\J	16f/LL	16a\LL	16a\LL	16a\LL	16a\LL	8f/J
16G\JJ	16G\JJ	16GG\JJ	.	16g/JJ	16b-\JJ	16b-\JJ	16b-\JJ	16b-\JJ	.
16F\LL	16F\LL	8FF/L	8f\L	8a/L	8cc\L	8cc\L	8cc\L	8cc\L	8a/L
16E\	16E\	.	.	.	.	.	.	.	.
16F\	16F\	8FFF/	8a\	8cc/	8ff\	8ff\J	8ff\	8ff\	8cc/
16G\JJ	16G\JJ	.	.	.	.	.	.	.	.
8A\J	8A\J	8FF/J	8cc\J	8a/J	8cc\J	16cc\LL	8cc\J	8cc\J	8ff/J
.	.	.	.	.	.	16ff\	.	.	.
8F\	8F\	8r	8r	8r	8r	16a\	8cc\	8r	8r
.	.	.	.	.	.	16ff\JJ	.	.	.
=13	=13	=13	=13	=13	=13	=13	=13	=13	=13
8B-\L	8B-\L	1r	1r	1r	1r	16b-\LL	16dd\LL	1r	1r
.	.	.	.	.	.	16ff\	16ee\	.	.
8A\	8A\	.	.	.	.	16b-\	16dd\	.	.
.	.	.	.	.	.	16ff\JJ	16ee\JJ	.	.
8G\	8G\	.	.	.	.	16b-\LL	8.eet\L	.	.
.	.	.	.	.	.	16gg\	.	.	.
8c\J	8c\J	.	.	.	.	16b-\	.	.	.
.	.	.	.	.	.	16gg\JJ	32dd\LLL	.	.
.	.	.	.	.	.	.	32ee\JJJ	.	.
8A\L	8A\L	.	.	.	.	16cc\LL	8ff\L	.	.
.	.	.	.	.	.	16aa\	.	.	.
8G\	8G\	.	.	.	.	16cc\	16f\LL	.	.
.	.	.	.	.	.	16aa\JJ	16g\JJ	.	.
8F\	8F\	.	.	.	.	16cc\LL	16a\LL	.	.
.	.	.	.	.	.	16ff\	16b-\	.	.
8A\J	8A\J	.	.	.	.	16cc\	16cc\	.	.
.	.	.	.	.	.	16ff\JJ	16a\JJ	.	.
=14	=14	=14	=14	=14	=14	=14	=14	=14	=14
8G\	8G\	2r	2r	2r	2r	16b-\LL	16dd/LL	2r	2r
.	.	.	.	.	.	16ff\	16b-/	.	.
8r	8r	.	.	.	.	16b-\	16g/	.	.
.	.	.	.	.	.	16ff\JJ	16b-/JJ	.	.
8c\	8c\	.	.	.	.	16b-\LL	16e/LL	.	.
.	.	.	.	.	.	16ee\	16g/	.	.
8r	8r	.	.	.	.	16b-\	16cc/	.	.
.	.	.	.	.	.	16ee\JJ	16b-/JJ	.	.
8F\L	8F\L	4r	4r	4r	4r	16ff\LL	16a/LL	4r	4r
.	.	.	.	.	.	16gg\	16b-/	.	.
8G\	8G\	.	.	.	.	16aa\	16cc/	.	.
.	.	.	.	.	.	16ff\JJ	16a/JJ	.	.
8A\J	8A\J	8r	8r	8r	8r	16cc\LL	8f/J	8r	8r
.	.	.	.	.	.	16ff\	.	.	.
8F\	8F\	8FF\	8f\	8cc\	8aa\	16aa\	8aa\	8aa\	8cc/
.	.	.	.	.	.	16ff\JJ	.	.	.
=15	=15	=15	=15	=15	=15	=15	=15	=15	=15
8E\L	8E\L	8EE\L	8g\L	8cc\L	8gg\L	8gg\L	8gg\L	8gg\L	16ccc\LL
.	.	.	.	.	.	.	.	.	16ddd\
8G\	8G\	8GG\	8cc\	8g\	16ee\LL	16ee\LL	16ee\LL	16ee\LL	16eee\
.	.	.	.	.	16ff\JJ	16ff\JJ	16ff\JJ	16ff\JJ	16ddd\JJ
8E\	8E\	8EE\	8g\	8cc\	8gg\L	8gg\L	8gg\L	8gg\L	16ccc\LL
.	.	.	.	.	.	.	.	.	16ddd\
8C\J	8C\J	8CC\J	8cc\J	8g\J	16ee\LL	16ee\LL	16ee\LL	16ee\LL	16eee\
.	.	.	.	.	16ff\JJ	16ff\JJ	16ff\JJ	16ff\JJ	16ddd\JJ
8E\L	8E\L	8EE\L	8g\L	8cc\L	8gg\L	8gg\L	8gg\L	8gg\L	16ccc\LL
.	.	.	.	.	.	.	.	.	16bbn\
8G\	8G\	8GG\	8e\	8gg\	8ccc\	8ccc\	8ccc\	8ccc\	16ccc\
.	.	.	.	.	.	.	.	.	16ddd\JJ
8c\	8c\	8C\	8c\	8ee\	8gg\	8gg\	8gg\	8gg\	16eee\LL
.	.	.	.	.	.	.	.	.	16fff\
8G\J	8G\J	8GG\J	8e\J	8gg\J	8ccc\J	8ccc\J	8ccc\J	8ccc\J	16eee\
.	.	.	.	.	.	.	.	.	16ddd\JJ
=16	=16	=16	=16	=16	=16	=16	=16	=16	=16
8E\L	8E\L	8EE\L	8g\L	8cc\L	8gg\L	8gg\L	8gg\L	8gg\L	16ccc\LL
.	.	.	.	.	.	.	.	.	16ddd\
8G\	8G\	8GG\	8cc\	8g\	16ee\LL	16ee\LL	16ee\LL	16ee\LL	16eee\
.	.	.	.	.	16ff\JJ	16ff\JJ	16ff\JJ	16ff\JJ	16ddd\JJ
8E\	8E\	8EE\	8g\	8cc\	8gg\L	8gg\L	8gg\L	8gg\L	16ccc\LL
.	.	.	.	.	.	.	.	.	16ddd\
8C\J	8C\J	8CC\J	8cc\J	8g\J	16ee\LL	16ee\LL	16ee\LL	16ee\LL	16eee\
.	.	.	.	.	16ff\JJ	16ff\JJ	16ff\JJ	16ff\JJ	16ddd\JJ
8E\L	8E\L	8EE\L	8g\L	8cc\L	8gg\L	8gg\L	8gg\L	8gg\L	8ccc\L
8G\	8G\	8GG\	8e\	8gg\	8ccc\	8ccc\	8ccc\J	8ccc\	8cc\J
8c\J	8c\J	8C\J	8c\J	8ee\J	8gg\J	8gg\J	16gg\LL	8gg\J	4r
.	.	.	.	.	.	.	16cc\	.	.
8C/	8C/	8r	8r	8r	8r	8r	16e\	8gg\	.
.	.	.	.	.	.	.	16cc\JJ	.	.
=17	=17	=17	=17	=17	=17	=17	=17	=17	=17
8F\L	8F\L	1r	1r	1r	1r	1r	16f/LL	16aa\LL	1r
.	.	.	.	.	.	.	16cc/	16bb\	.
8E\	8E\	.	.	.	.	.	16f/	16aa\	.
.	.	.	.	.	.	.	16cc/JJ	16bb\JJ	.
8D\	8D\	.	.	.	.	.	16f/LL	8.bbt\L	.
.	.	.	.	.	.	.	16dd/	.	.
8G\J	8G\J	.	.	.	.	.	16f/	.	.
.	.	.	.	.	.	.	16dd/JJ	32aa\LLL	.
.	.	.	.	.	.	.	.	32bb\JJJ	.
8E\L	8E\L	.	.	.	.	.	16g/LL	8ccc\L	.
.	.	.	.	.	.	.	16ee/	.	.
8D\	8D\	.	.	.	.	.	16g/	16cc\LL	.
.	.	.	.	.	.	.	16ee/JJ	16dd\JJ	.
8C\	8C\	.	.	.	.	.	16g/LL	16ee\LL	.
.	.	.	.	.	.	.	16cc/	16ff\	.
8E\J	8E\J	.	.	.	.	.	16g/	16gg\	.
.	.	.	.	.	.	.	16cc/JJ	16ee\JJ	.
=18	=18	=18	=18	=18	=18	=18	=18	=18	=18
8F\	8F\	2r	2r	2r	2r	2r	16f/LL	16aa\LL	2r
.	.	.	.	.	.	.	16cc/	16ff\	.
8r	8r	.	.	.	.	.	16f/	16dd\	.
.	.	.	.	.	.	.	16cc/JJ	16ff\JJ	.
8G\	8G\	.	.	.	.	.	16f/LL	16b\LL	.
.	.	.	.	.	.	.	16b/	16dd\	.
8r	8r	.	.	.	.	.	16f/	16gg\	.
.	.	.	.	.	.	.	16b/JJ	16ff\JJ	.
8C/L	8C/L	4r	4r	4r	4r	4r	16cc\LL	16ee\LL	4r
.	.	.	.	.	.	.	16dd\	16ff\	.
8D/	8D/	.	.	.	.	.	16ee\	16gg\	.
.	.	.	.	.	.	.	16cc\JJ	16ee\JJ	.
8E/J	8E/J	8r	8r	8r	8r	8r	16g\LL	8cc\J	8r
.	.	.	.	.	.	.	16cc\	.	.
8C/	8C/	8CC/	8g\	8ee\	8ccc\	8ccc\	16ee\	8ccc\	8cc/
.	.	.	.	.	.	.	16cc\JJ	.	.
=19	=19	=19	=19	=19	=19	=19	=19	=19	=19
8E\L	8E\L	8EE\L	8g\L	8cc\L	8gg\L	8gg\L	8gg\L	8gg\L	16ccc\LL
.	.	.	.	.	.	.	.	.	16ddd\
8G\	8G\	8GG\	8cc\	8g\	16ee\LL	16ee\LL	16ee\LL	16ee\LL	16eee\
.	.	.	.	.	16ff\JJ	16ff\JJ	16ff\JJ	16ff\JJ	16ddd\JJ
8E\	8E\	8EE\	8g\	8cc\	8gg\L	8gg\L	8gg\L	8gg\L	16ccc\LL
.	.	.	.	.	.	.	.	.	16ddd\
8C\J	8C\J	8CC\J	8cc\J	8g\J	16ee\LL	16ee\LL	16ee\LL	16ee\LL	16eee\
.	.	.	.	.	16ff\JJ	16ff\JJ	16ff\JJ	16ff\JJ	16ddd\JJ
8E\L	8E\L	8EE\L	8g\L	8cc\L	8gg\L	8gg\L	8gg\L	8gg\L	16ccc\LL
.	.	.	.	.	.	.	.	.	16bbn\
8G\	8G\	8GG\	8e\	8gg\	8ccc\	8ccc\	8ccc\	8ccc\	16ccc\
.	.	.	.	.	.	.	.	.	16ddd\JJ
8c\	8c\	8C\	8c\	8ee\	8gg\	8gg\	8gg\	8gg\	16eee\LL
.	.	.	.	.	.	.	.	.	16fff\
8G\J	8G\J	8GG\J	8e\J	8gg\J	8ccc\J	8ccc\J	8ccc\J	8ccc\J	16eee\
.	.	.	.	.	.	.	.	.	16ddd\JJ
=20	=20	=20	=20	=20	=20	=20	=20	=20	=20
8E\L	8E\L	8EE\L	8g\L	8cc\L	8gg\L	8gg\L	8gg\L	8gg\L	16ccc\LL
.	.	.	.	.	.	.	.	.	16ddd\
8G\	8G\	8GG\	8cc\	8g\	16ee\LL	16ee\LL	16ee\LL	16ee\LL	16eee\
.	.	.	.	.	16ff\JJ	16ff\JJ	16ff\JJ	16ff\JJ	16ddd\JJ
8E\	8E\	8EE\	8g\	8cc\	8gg\L	8gg\L	8gg\L	8gg\L	16ccc\LL
.	.	.	.	.	.	.	.	.	16ddd\
8C\J	8C\J	8CC\J	8cc\J	8g\J	16ee\LL	16ee\LL	16ee\LL	16ee\LL	16eee\
.	.	.	.	.	16ff\JJ	16ff\JJ	16ff\JJ	16ff\JJ	16ddd\JJ
8E\L	8E\L	8EE\L	8g\L	8cc\L	8gg\L	8gg\L	8gg\L	8gg\L	8ccc\L
8G\	8G\	8GG\	8e\	8gg\	8ccc\	8ccc\	8ccc\	8ccc\J	8cc\J
8c\J	8c\J	8C\J	8c\J	8ee\J	8gg\J	8gg\J	8gg\J	16gg\LL	8r
.	.	.	.	.	.	.	.	16ccc\	.
8C/	8C/	8r	8r	8r	8r	8r	8r	16ee\	8gg\
.	.	.	.	.	.	.	.	16ccc\JJ	.
=21	=21	=21	=21	=21	=21	=21	=21	=21	=21
8F\L	8F\L	1r	1r	1r	1r	1r	1r	16ff\LL	16aa\LL
.	.	.	.	.	.	.	.	16ccc\	16bbn\
8E\	8E\	.	.	.	.	.	.	16ff\	16aa\
.	.	.	.	.	.	.	.	16ccc\JJ	16bbn\JJ
8D\	8D\	.	.	.	.	.	.	16ff\LL	8.bbnt\L
.	.	.	.	.	.	.	.	16ddd\	.
8G\J	8G\J	.	.	.	.	.	.	16ff\	.
.	.	.	.	.	.	.	.	16ddd\JJ	32aa\LLL
.	.	.	.	.	.	.	.	.	32bbn\JJJ
8E\L	8E\L	.	.	.	.	.	.	16gg\LL	16ccc\LL
.	.	.	.	.	.	.	.	16eee\	16bbn\
8D\	8D\	.	.	.	.	.	.	16gg\	16ccc\
.	.	.	.	.	.	.	.	16eee\JJ	16ddd\JJ
8E\	8E\	.	.	.	.	.	.	16gg\LL	16ccc\LL
.	.	.	.	.	.	.	.	16ccc\	16bbn\
8C\J	8C\J	.	.	.	.	.	.	16gg\	16aa\
.	.	.	.	.	.	.	.	16ccc\JJ	16gg\JJ
=22	=22	=22	=22	=22	=22	=22	=22	=22	=22
8F\	8F\	2r	2r	2r	2r	2r	2r	16ff\LL	16aa\LL
.	.	.	.	.	.	.	.	16ccc\	16gg\
8r	8r	.	.	.	.	.	.	16ff\	16aa\
.	.	.	.	.	.	.	.	16ccc\JJ	16ccc\JJ
8G/L	8G/L	.	.	.	.	.	.	16ff\LL	16bbn\LL
.	.	.	.	.	.	.	.	16bb\	16aa\
8GG/J	8GG/J	.	.	.	.	.	.	16ff\	16gg\
.	.	.	.	.	.	.	.	16bb\JJ	16ff\JJ
8C/L	8C/L	4r	4r	4r	4r	4r	4r	16ccc\LL	8gg\L
.	.	.	.	.	.	.	.	16gg\	.
8D/	8D/	.	.	.	.	.	.	16ee\	8cc\J
.	.	.	.	.	.	.	.	16gg\JJ	.
8E/J	8E/J	8r	8r	8r	8r	8r	8r	16cc\LL	8r
.	.	.	.	.	.	.	.	16dd\	.
8C/	8C/	8EE\	8g\	8g/	8cc\	8cc\	8cc\	16ee\	16gg\LL
.	.	.	.	.	.	.	.	16cc\JJ	16gg\JJ
=23	=23	=23	=23	=23	=23	=23	=23	=23	=23
8BB/L	8BB/L	8BBB/L	8d\L	16g/LL	16dd\LL	16dd\LL	16dd\LL	16dd\LL	4gg\
.	.	.	.	16a/	16cc\	16cc\	16cc\	16cc\	.
8D/	8D/	8DD/	8f\	16b/	16dd\	16dd\	16dd\	16dd\	.
.	.	.	.	16cc/JJ	16ee\JJ	16ee\JJ	16ee\JJ	16ee\JJ	.
8GG/	8GG/	8GGG/	8B\	8dd\L	16ff\LL	16ff\LL	16ff\LL	16ff\LL	8r
.	.	.	.	.	16ee\	16ee\	16ee\	16ee\	.
8C/J	8C/J	8CC/J	8g\J	8cc\J	16ff\	16ff\	16ff\	16ff\	16gg\LL
.	.	.	.	.	16ee\JJ	16ee\JJ	16ee\JJ	16ee\JJ	16gg\JJ
8BB/L	8BB/L	8BBB/L	4d\	4g/	16dd\LL	16dd\LL	16dd\LL	16dd\LL	4gg\
.	.	.	.	.	16cc\	16cc\	16cc\	16cc\	.
8D/	8D/	8DD/	.	.	16b\	16b\	16b\	16b\	.
.	.	.	.	.	16a\JJ	16a\JJ	16a\JJ	16a\JJ	.
8GG/	8GG/	8GGG/	8r	8r	16g\LL	16g\LL	16g\LL	16g\LL	8r
.	.	.	.	.	16cc\	16cc\	16cc\	16cc\	.
8E/J	8E/J	8EE/J	8g\	8g/	16b\	16b\	16b\	16b\	16gg\LL
.	.	.	.	.	16cc\JJ	16cc\JJ	16cc\JJ	16cc\JJ	16gg\JJ
=24	=24	=24	=24	=24	=24	=24	=24	=24	=24
8BB/L	8BB/L	8BBB/L	8d\L	16g/LL	16dd\LL	16dd\LL	16dd\LL	16dd\LL	4gg\
.	.	.	.	16a/	16cc\	16cc\	16cc\	16cc\	.
8D/	8D/	8DD/	8f\	16b/	16dd\	16dd\	16dd\	16dd\	.
.	.	.	.	16cc/JJ	16ee\JJ	16ee\JJ	16ee\JJ	16ee\JJ	.
8GG/	8GG/	8GGG/	8B\	8dd\L	16ff\LL	16ff\LL	16ff\LL	16ff\LL	8r
.	.	.	.	.	16ee\	16ee\	16ee\	16ee\	.
8C/J	8C/J	8CC/J	8g\J	8cc\J	16ff\	16ff\	16ff\	16ff\	16gg\LL
.	.	.	.	.	16ee\JJ	16ee\JJ	16ee\JJ	16ee\JJ	16gg\JJ
8BB/L	8BB/L	8BBB/L	4d\	4g/	16dd\LL	16dd\LL	16dd\LL	16dd\LL	4gg\
.	.	.	.	.	16cc\	16cc\	16cc\	16cc\	.
8D/	8D/	8DD/	.	.	16b\	16b\	16b\	16b\	.
.	.	.	.	.	16a\JJ	16a\JJ	16a\JJ	16a\JJ	.
8GG/J	8GG/J	8GGG/	8r	8r	16g/LL	16g/LL	16g/LL	8g\J	8r
.	.	.	.	.	16f/	16f/	16f/	.	.
16G\LL	16G\LL	8FFF/J	8G/	16c/LL	16e/	16e/	16e/	8ccc\	8gg\
16F\JJ	16F\JJ	.	.	16B/JJ	16d/JJ	16d/JJ	16d/JJ	.	.
=25	=25	=25	=25	=25	=25	=25	=25	=25	=25
8E\L	8E\L	8EEE/L	8G/L	4c/	8c/L	8c/L	8c/L	8ccc'\L	8gg\L
8C\	8C\	8CCC/	16G/LL	.	16e/LL	16e/LL	16e/LL	8gg'\	16ccc\LL
.	.	.	16F/JJ	.	16d/JJ	16d/JJ	16d/JJ	.	16bbn\JJ
8E\	8E\	8EEE/	8E/L	8r	8c/L	8c/L	8c/L	8gg'\	8ccc\L
8G\J	8G\J	8GGG/J	16E/LL	16c/LL	16g/LL	16g/LL	16g/LL	8ee'\J	8gg\J
.	.	.	16D/JJ	16B/JJ	16f/JJ	16f/JJ	16f/JJ	.	.
8c\L	8c\L	8CC/L	4C/	8c/L	8e/L	8e/L	8e/L	8ee\L	8gg\L
8G\	8G\	8GGG/	.	16c/LL	8cc/J	8cc/J	8cc/J	8cc\	16eee\LL
.	.	.	.	16B/JJ	.	.	.	.	16ddd\JJ
8E\	8E\	8EEE/	8r	8c/L	16g/LL	16g/LL	16g/LL	8cc\	8eee\L
.	.	.	.	.	16f/	16f/	16f/	.	.
8G\J	8G\J	8GGG/J	16G/LL	16c/LL	16e/	16e/	16e/	8ccc\J	8gg\J
.	.	.	16F/JJ	16B/JJ	16d/JJ	16d/JJ	16d/JJ	.	.
=26	=26	=26	=26	=26	=26	=26	=26	=26	=26
8E\L	8E\L	8EEE/L	8G/L	4c/	8c/L	8c/L	8c/L	8ccc\L	8gg\L
8C\	8C\	8CCC/	16G/LL	.	16e/LL	16e/LL	16e/LL	8gg\	16ccc\LL
.	.	.	16F/JJ	.	16d/JJ	16d/JJ	16d/JJ	.	16bbn\JJ
8E\	8E\	8EEE/	8E/L	8r	8c/L	8c/L	8c/L	8gg\	8ccc\L
8G\J	8G\J	8GGG/J	16E/LL	16c/LL	16g/LL	16g/LL	16g/LL	8ee\J	8gg\J
.	.	.	16D/JJ	16B/JJ	16f/JJ	16f/JJ	16f/JJ	.	.
8c\L	8c\L	8CC/L	4C/	8c/L	8e/L	8e/L	8e/L	8ee\L	8gg\L
8G\	8G\	8GGG/	.	16c/LL	8cc/J	8cc/J	8cc/J	8cc\	16eee\LL
.	.	.	.	16B/JJ	.	.	.	.	16ddd\JJ
8E\	8E\	8EEE/	8r	8c/L	16g/LL	16g/LL	16g/LL	8cc\	8eee\
.	.	.	.	.	16a/	16a/	16a/	.	.
8C\J	8C\J	8CCC/J	8e\	8g/J	16b/	16b/	16b/	8gg\J	8r
.	.	.	.	.	16cc/JJ	16cc/JJ	16cc/JJ	.	.
=27	=27	=27	=27	=27	=27	=27	=27	=27	=27
8G\L	8G\L	8GGG/L	8d\	8b\	16dd\LL	16dd\LL	16dd\LL	16dd\LL	8r
.	.	.	.	.	16ee\	16ee\	16ee\	16ee\	.
8BB\	8BB\	8BBB/	4G/	4dd\	16ff\	16ff\	16ff\	16ff\	16gg\LL
.	.	.	.	.	16dd\JJ	16dd\JJ	16dd\JJ	16dd\JJ	16aa\JJ
8C\	8C\	8CC/	.	.	16ee\LL	16ee\LL	16ee\LL	16ee\LL	8gg\L
.	.	.	.	.	16cc\	16cc\	16cc\	16cc\	.
8E\J	8E\J	8EE/J	8e\	8cc\	16g\	16g\	16g\	16g\	8ccc\J
.	.	.	.	.	16cc\JJ	16cc\JJ	16cc\JJ	16cc\JJ	.
8G\L	8G\L	8GG\L	8d\	8b\L	16dd\LL	16dd\LL	16dd\LL	16dd\LL	8bbn\L
.	.	.	.	.	16ee\	16ee\	16ee\	16ee\	.
8BB\	8BB\	8BBB\	4G/	8dd\	16ff\	16ff\	16ff\	16ff\	16gg\LL
.	.	.	.	.	16dd\JJ	16dd\JJ	16dd\JJ	16dd\JJ	16aa\JJ
8C\	8C\	8CC\	.	8cc\	16ee\LL	16ee\LL	16ee\LL	16ee\LL	8gg\L
.	.	.	.	.	16cc\JJ	16cc\JJ	16cc\JJ	16cc\JJ	.
8E\J	8E\J	8EE\J	8G/	8cc\J	8gg\J	8gg\J	8gg\J	8gg\J	8ccc\J
=28	=28	=28	=28	=28	=28	=28	=28	=28	=28
8A\L	8A\L	8AA\L	8c\L	8cc/L	(16ff\LL	(16ff\LL	(16ff\LL	(16ff\LL	8cc/
.	.	.	.	.	16ee\)	16ee\)	16ee\	16ee\	.
8F\	8F\	8FF\	8f\	8a/	(16dd\	(16dd\	16dd\	16dd\	8r
.	.	.	.	.	16cc\JJ)	16cc\JJ)	16cc\JJ)	16cc\JJ)	.
8G\	8G\	8GG\	8e\	8g/	8g/L	8g/L	8g/L	8g/L	4r
8GG\J	8GG\J	8GGG\J	8d\J	8f/J	8b/J	8b/J	8b/J	8b/J	.
8C/	8C/	4CC/	4c\	4e/	4cc\	16cc\LL	4cc\	4cc\	4r
.	.	.	.	.	.	16dd\	.	.	.
16D\LL	16D\LL	.	.	.	.	16cc\	.	.	.
16E\JJ	16E\JJ	.	.	.	.	16b-\JJ	.	.	.
16F\LL	16F\LL	4r	4r	4r	4r	16a/LL	8r	8r	8r
16G\	16G\	.	.	.	.	16g/	.	.	.
16A\	16A\	.	.	.	.	16f/	8ff\	8ff\	8ccc\
16F\JJ	16F\JJ	.	.	.	.	16e-/JJ	.	.	.
=29	=29	=29	=29	=29	=29	=29	=29	=29	=29
8B-\L	8B-\L	1r	1r	1r	1r	16d/LL	8dd\	8ff\	16ddd\LL
.	.	.	.	.	.	16c/	.	.	16eee\
8A\	8A\	.	.	.	.	16B-/	8r	8r	16ddd\
.	.	.	.	.	.	16A/JJ	.	.	16eee\JJ
8G\	8G\	.	.	.	.	16G/LL	8b-\	8gg\	8.eeet\L
.	.	.	.	.	.	16c/	.	.	.
8c\J	8c\J	.	.	.	.	16B-/	8r	8r	.
.	.	.	.	.	.	16c/JJ	.	.	32ddd\LLL
.	.	.	.	.	.	.	.	.	32eee\JJJ
8A\L	8A\L	.	.	.	.	16A/LL	8cc\	8aa\	8fff\L
.	.	.	.	.	.	16c/	.	.	.
8G\	8G\	.	.	.	.	16d/	8r	8r	16ff\LL
.	.	.	.	.	.	16e/JJ	.	.	16gg\JJ
8F\	8F\	.	.	.	.	16f/LL	8r	8r	16aa\LL
.	.	.	.	.	.	16e-/	.	.	16bb-\
8A\J	8A\J	.	.	.	.	16d/	8cc\	8ff\	16ccc\
.	.	.	.	.	.	16c/JJ	.	.	16aa\JJ
=30	=30	=30	=30	=30	=30	=30	=30	=30	=30
8B-\	8B-\	2r	2r	2r	2r	16B-/LL	8b-/	8ff\	16ddd\LL
.	.	.	.	.	.	16f/	.	.	16bb-\
8r	8r	.	.	.	.	16e/	8r	8r	16gg\
.	.	.	.	.	.	16f/JJ	.	.	16bb-\JJ
8c\	8c\	.	.	.	.	16c/LL	8g/	8ee\	16cc\LL
.	.	.	.	.	.	16e/	.	.	16gg\
8r	8r	.	.	.	.	16d/	8r	8r	16ccc\
.	.	.	.	.	.	16e/JJ	.	.	16bb-\JJ
8r	8r	4r	4r	4r	4r	16f/LL	8f/	8ff\	16aa\LL
.	.	.	.	.	.	16c/	.	.	16bb-\
16F\LL	16F\LL	.	.	.	.	16A/	8r	8r	16ccc\
16G\JJ	16G\JJ	.	.	.	.	16c/JJ	.	.	16aa\JJ
16A\LL	16A\LL	8r	8r	8r	8r	16f/LL	8r	8r	8ff\L
16G\	16G\	.	.	.	.	16c/JJ	.	.	.
16F\	16F\	16FF\LL	8a\	8a/	8a/	8a/J	8f/	16dd\LL	8aa\J
16E\JJ	16E\JJ	16EE\JJ	.	.	.	.	.	16ee\JJ	.
=31	=31	=31	=31	=31	=31	=31	=31	=31	=31
16D\LL	16D\LL	16DD\LL	8a\L	8a/L	8a/L	8a/L	8f/L	16ff\LL	[1aat\
16E\	16E\	16EE\	.	.	.	.	.	16gg\	.
16F\	16F\	16FF\	16f\LL	16f/LL	16f/LL	16f/LL	16d/LL	16aa\	.
16E\JJ	16E\JJ	16EE\JJ	16g\JJ	16g/JJ	16g/JJ	16g/JJ	16e/JJ	16gg\JJ	.
16D\LL	16D\LL	16DD\LL	8a\L	8a/L	8a/L	8a/L	8f/L	16ff\LL	.
16E\	16E\	16EE\	.	.	.	.	.	16gg\	.
16F\	16F\	16FF\	16f\LL	16f/LL	16f/LL	16f/LL	16d/LL	16aa\	.
16E\JJ	16E\JJ	16EE\JJ	16g\JJ	16g/JJ	16g/JJ	16g/JJ	16e/JJ	16gg\JJ	.
16D\LL	16D\LL	16DD\LL	8a\L	8a/L	8a/L	8a/L	8f/L	16ff\LL	.
16C#\	16C#\	16CC#\	.	.	.	.	.	16gg\	.
16D\	16D\	16DD\	8dd\	8dd/	8dd/	8dd/	8a/	16ff\	.
16E\JJ	16E\JJ	16EE\JJ	.	.	.	.	.	16ee\JJ	.
16F\LL	16F\LL	16FF\LL	8a\	8a/	8a/	8a/	8f/	16dd\LL	.
16G\	16G\	16GG\	.	.	.	.	.	16cc#\	.
16F\	16F\	16FF\	8dd\J	8dd/J	8dd/J	8dd/J	8a/J	16dd\	.
16E\JJ	16E\JJ	16EE\JJ	.	.	.	.	.	16ee\JJ	.
=32	=32	=32	=32	=32	=32	=32	=32	=32	=32
16D\LL	16D\LL	16DD\LL	8a\L	8a/L	8a/L	8a/L	8f/L	16ff\LL	2aatz\]
16E\	16E\	16EE\	.	.	.	.	.	16gg\	.
16F\	16F\	16FF\	16f\LL	16f/LL	16f/LL	16f/LL	16d/LL	16aa\	.
16E\JJ	16E\JJ	16EE\JJ	16g\JJ	16g/JJ	16g/JJ	16g/JJ	16e/JJ	16gg\JJ	.
16D\LL	16D\LL	16DD\LL	8a\L	8a/L	8a/L	8a/L	8f/L	16ff\LL	.
16E\	16E\	16EE\	.	.	.	.	.	16gg\	.
16F\	16F\	16FF\	16f\LL	16f/LL	16f/LL	16f/LL	16d/LL	16aa\	.
16E\JJ	16E\JJ	16EE\JJ	16g\JJ	16g/JJ	16g/JJ	16g/JJ	16e/JJ	16gg\JJ	.
16D\LL	16D\LL	16DD\LL	8a\L	8a/L	8a/L	8a/L	8f/L	16ff\LL	8r
16C#\	16C#\	16CC#\	.	.	.	.	.	16gg\	.
16D\	16D\	16DD\	8dd\	8dd/	8dd/	8dd/J	8a/	16ff\	8aa\L
16E\JJ	16E\JJ	16EE\JJ	.	.	.	.	.	16ee\JJ	.
16F\LL	16F\LL	16FF\LL	8a\J	8a/J	8a/J	16a/LL	8f/J	16dd\LL	8ddd\
16E\	16E\	16EE\	.	.	.	16ff/	.	16ee\	.
*	*	*	*	*	*	*	*	*	*
*	*	*	*	*	*	*^	*	*	*
16F\	16F\	16FF\	8d\	8r	8ff\	8d/	16a/	8r	16dd\	8aa\J
16D\JJ	16D\JJ	16DD\JJ	.	.	.	.	16ff/JJ	.	16cc\JJ	.
=33	=33	=33	=33	=33	=33	=33	=33	=33	=33	=33
*	*	*	*	*	*	*	*	*	*	*
16G\LL	16G\LL	8GG\L	16G/LL	1b-\	2ff\	8g\L	16b-/LL	8r	16b-\LL	[2bb-\
16F\	16F\	.	16F/	.	.	.	16ff/	.	16a\	.
16G\	16G\	8GGG\J	16G/	.	.	8g\J	16b-/	8dd\L	16b-\	.
16A\JJ	16A\JJ	.	16A/JJ	.	.	.	16ff/JJ	.	16cc\JJ	.
16B-\LL	16B-\LL	8r	16B-/LL	.	.	8g\L	16b-/LL	8gg\	16dd\LL	.
16A\	16A\	.	16A/	.	.	.	16ff/	.	16cc\	.
16B-\	16B-\	8GG\	16B-/	.	.	8g\J	16b-/	8dd\J	16dd\	.
16G\JJ	16G\JJ	.	16G/JJ	.	.	.	16ff/JJ	.	16b-\JJ	.
16C/LL	16C/LL	16CC/LL	8c\L	.	[2ee\	8g\L	16b-/LL	[2ee\	16ee\LL	8bb-\L]
16BB-/	16BB-/	16BBB-/	.	.	.	.	16ee/	.	16dd\	.
16C/	16C/	16CC/	8cc\J	.	.	8g\J	16b-/	.	16ee\	8gg\
16D/JJ	16D/JJ	16DD/JJ	.	.	.	.	16ee/JJ	.	16ff\JJ	.
16E/LL	16E/LL	16EE/LL	8r	.	.	8g\L	16b-/LL	.	16gg\LL	8ccc\
16D/	16D/	16DD/	.	.	.	.	16ee/	.	16ff\	.
16E/	16E/	16EE/	8c\	.	.	8g\J	16b-/	.	16gg\	8gg\J
16C/JJ	16C/JJ	16CC/JJ	.	.	.	.	16ee/JJ	.	16ee\JJ	.
=34	=34	=34	=34	=34	=34	=34	=34	=34	=34	=34
16F\LL	16F\LL	8FF/L	16F/LL	1a/	2ee\]	8f\L	16a/LL	8ee\L]	16aa\LL	[2aa\
16E\	16E\	.	16E/	.	.	.	16ee/	.	16gg\	.
16F\	16F\	8FFF/J	16F/	.	.	8f\J	16a/	8cc\	16aa\	.
16G\JJ	16G\JJ	.	16G/JJ	.	.	.	16ee/JJ	.	16bb-\JJ	.
16A\LL	16A\LL	8r	16A/LL	.	.	8f\L	16a/LL	8ff\	16ccc\LL	.
16G\	16G\	.	16G/	.	.	.	16ee/	.	16bb-\	.
16A\	16A\	8FF\	16A/	.	.	8f\J	16a/	8cc\J	16ccc\	.
16F\JJ	16F\JJ	.	16F/JJ	.	.	.	16ee/JJ	.	16aa\JJ	.
16BB-/LL	16BB-/LL	16BBB-/LL	8B-\L	.	[2dd\	8f\L	16a/LL	[2dd\	16ddd\LL	8aa\L]
16AA/	16AA/	16AAA/	.	.	.	.	16dd/	.	16ccc#\	.
16BB-/	16BB-/	16BBB-/	8b-\J	.	.	8f\J	16a/	.	16ddd\	8ff\
16C/JJ	16C/JJ	16CC/JJ	.	.	.	.	16dd/JJ	.	16eee\JJ	.
16D/LL	16D/LL	16DD/LL	8r	.	.	8f\L	16a/LL	.	16fff\LL	8bb-\
16C/	16C/	16CC/	.	.	.	.	16dd/	.	16eee\	.
16D/	16D/	16DD/	8B-/	.	.	8f\J	16a/	.	16fff\	8ff\J
16BB-/JJ	16BB-/JJ	16BBB-/JJ	.	.	.	.	16dd/JJ	.	16ddd\JJ	.
*	*	*	*	*	*	*	*	*	*	*
*	*	*	*	*	*	*	*	*	*	*
*	*	*	*	*	*	*v	*v	*	*	*
=35	=35	=35	=35	=35	=35	=35	=35	=35	=35
16E\LL	16E\LL	8EE/L	16E/LL	2.g/	2dd\]	16e/LL	8dd\L]	8.ggg\L	[2ggT\
16D\	16D\	.	16D/	.	.	16dd/	.	.	.
16E\	16E\	8EEE/J	16E/	.	.	16e/	8b\	.	.
16F\JJ	16F\JJ	.	16F/JJ	.	.	16dd/JJ	.	16fff\Jk	.
16G\LL	16G\LL	8r	16G/LL	.	.	16e/LL	8ee\	16eee\LL	.
16F\	16F\	.	16F/	.	.	16dd/	.	16ddd\	.
16G\	16G\	8EE\	16G/	.	.	16e/	8b\J	16ccc#\	.
16E\JJ	16E\JJ	.	16E/JJ	.	.	16dd/JJ	.	16bb\JJ	.
16AA/LL	16AA/LL	16AAA/LL	8A\L	.	2cc#\	16e/LL	4.cc#t\	8.aa\L	8gg\L]
16GG/	16GG/	16GGG/	.	.	.	16cc#/	.	.	.
16AA/	16AA/	16AAA/	8a\J	.	.	16e/	.	.	16ff\LL
16BB-/JJ	16BB-/JJ	16BBB-/JJ	.	.	.	16cc#/JJ	.	16gg\Jk	16gg\JJ
16AA/LL	16AA/LL	16AAA/LL	8r	4e/	.	16e/LL	.	16ff\LL	8aa\L
16GG/	16GG/	16GGG/	.	.	.	16cc#/	.	16ee\	.
16FF/	16FF/	16FFF/	16a\LL	.	.	16e/	16dd\LL	16dd\	8gg\J
16EE/JJ	16EE/JJ	16EEE/JJ	16g\JJ	.	.	16cc#/JJ	16ee\JJ	16cc#\JJ	.
=36	=36	=36	=36	=36	=36	=36	=36	=36	=36
8DD/L	8DD/L	8DDD/L	8a\L	4f/	8dd\L	8d\L	8ff\L	8dd\L	8ff\L
8D/	8D/	8DD/	16a\LL	.	16ff\LL	16ff\LL	8a\	16ff\LL	16ddd\LL
.	.	.	16g\JJ	.	16ee\JJ	16ee\JJ	.	16ee\JJ	16ccc#\JJ
8F/	8F/	8FF/	8f\L	8r	8dd\L	8dd\L	8a\	8dd\L	8ddd\L
8A/J	8A/J	8AA/J	16f\LL	16dd\LL	16aa\LL	16aa\LL	8f\J	16aa\LL	8aa\J
.	.	.	16e\JJ	16cc#\JJ	16gg\JJ	16gg\JJ	.	16gg\JJ	.
8d\L	8d\L	8D\L	4d\	8dd\L	8ff\L	8ff\L	8f/L	8ff\L	8aa\L
8A\	8A\	8AA\	.	16dd\LL	8ddd\J	8ddd\J	8d/	8ddd\J	16fff\LL
.	.	.	.	16cc#\JJ	.	.	.	.	16eee\JJ
8F\	8F\	8FF\	8r	8dd\L	16aa\LL	16aa\LL	8d/	16aa\LL	8fff\L
.	.	.	.	.	16gg\	16gg\	.	16gg\	.
8A\J	8A\J	8AA\J	16a\LL	16dd\LL	16ff\	16ff\	8dd/J	16ff\	8aa\J
.	.	.	16g\JJ	16cc#\JJ	16ee\JJ	16ee\JJ	.	16ee\JJ	.
=37	=37	=37	=37	=37	=37	=37	=37	=37	=37
8F\L	8F\L	8FF\L	8a\L	4dd\	8dd\L	8dd\L	8dd/L	8dd\L	8aa\L
8D\	8D\	8DD\	16a\LL	.	16ff\LL	16ff\LL	8a/	16ff\LL	16ddd\LL
.	.	.	16g\JJ	.	16ee\JJ	16ee\JJ	.	16ee\JJ	16ccc#\JJ
8F\	8F\	8FF\	8f\L	8r	8dd\L	8dd\L	8a/	8dd\L	8ddd\L
8A\J	8A\J	8AA\J	16f\LL	16dd\LL	16aa\LL	16aa\LL	8f/J	16aa\LL	8aa\J
.	.	.	16e\JJ	16cc#\JJ	16gg\JJ	16gg\JJ	.	16gg\JJ	.
8d\L	8d\L	8D\L	4d\	8dd\L	8ff\L	8ff\L	8f/L	8ff\L	8aa\L
8A\	8A\	8AA\	.	16dd\LL	8ddd\J	8ddd\J	8d/	8ddd\J	16fff\LL
.	.	.	.	16cc#\JJ	.	.	.	.	16eee\JJ
8F\	8F\	8FF\	8r	8dd\L	16a\LL	16a\LL	8d/J	16a\LL	8fff\
.	.	.	.	.	16b\	16b\	.	16b\	.
8D\J	8D\J	8DD\J	8f\	8a\J	16cc#\	16cc#\	8aa\	16cc#\	8r
.	.	.	.	.	16dd\JJ	16dd\JJ	.	16dd\JJ	.
=38	=38	=38	=38	=38	=38	=38	=38	=38	=38
8A\L	8A\L	8AA\L	8e\	8cc#\	16ee\LL	16ee\LL	16ee\LL	16ee\LL	8r
.	.	.	.	.	16ff\	16ff\	16ff\	16ff\	.
8C#\	8C#\	8CC#\	4A/	4ee\	16gg\	16gg\	16gg\	16gg\	16a/LL
.	.	.	.	.	16ee\JJ	16ee\JJ	16ee\JJ	16ee\JJ	16a/JJ
8D\	8D\	8DD\	.	.	16ff\LL	16ff\LL	16ff\LL	16ff\LL	8a/
.	.	.	.	.	16dd\	16dd\	16dd\	16dd\	.
8F\J	8F\J	8FF\J	8f\	8dd\	16a\	16a\	16a\	16a\	8r
.	.	.	.	.	16dd\JJ	16dd\JJ	16dd\JJ	16dd\JJ	.
8A\L	8A\L	8AA\L	8e\	8cc#\L	16ee\LL	16ee\LL	16ee\LL	16ee\LL	8r
.	.	.	.	.	16ff\	16ff\	16ff\	16ff\	.
8C#\	8C#\	8CC#\	4A/	8ee\	16gg\	16gg\	16gg\	16gg\	16a/LL
.	.	.	.	.	16ee\JJ	16ee\JJ	16ee\JJ	16ee\JJ	16a/JJ
8D\	8D\	8DD\	.	8dd\	16ff\LL	16ff\LL	16ff\LL	16ff\LL	8a/
.	.	.	.	.	16dd\JJ	16dd\JJ	16dd\JJ	16dd\JJ	.
8F\J	8F\J	8FF\J	8A/	8dd\J	8aa\J	8aa\J	8aa\J	8aa\J	8r
=39	=39	=39	=39	=39	=39	=39	=39	=39	=39
8B-\L	8B-\L	8BB-\L	8d\L	8dd/L	(16gg\LL	(16gg\LL	(16gg\LL	(16gg\LL	8r
.	.	.	.	.	16ff\)	16ff\)	16ff\	16ff\	.
16F\LL	16F\LL	16FF\LL	8f\	8a/	(16ee\	(16ee\	16ee\	16ee\	16a/LL
16G\JJ	16G\JJ	16GG\JJ	.	.	16dd\JJ)	16dd\JJ)	16dd\JJ)	16dd\JJ)	16a/JJ
8A\L	8A\L	8AA\L	8f\	8a/	8a\L	8a\L	8a\L	8a\L	8a/L
8AA\J	8AA\J	8AAA\J	8e\J	8g/J	8cc#\J	8cc#\J	8cc#\J	8cc#\J	8a/J
8D/L	8D/L	8DD/L	4d\	4f/	4dd\	8dd\L	8dd\L	16dd\LL	4f/
.	.	.	.	.	.	.	.	16ff\	.
8DD/J	8DD/J	8DDD/J	.	.	.	16cc\LL	16cc\LL	16gg\	.
.	.	.	.	.	.	16b-\JJ	16b-\JJ	16aa\JJ	.
8r	8r	8r	8r	8r	8r	16a/LL	16a/LL	16bb\LL	8r
.	.	.	.	.	.	16g/	16g/	16ccc#\	.
8A\	8A\	8AA\	16d\LL	16d/LL	16d/LL	16f/	16f/	16ddd\	8aa\
.	.	.	16c#\JJ	16c#/JJ	16c#/JJ	16e/JJ	16e/JJ	16eee\JJ	.
=40	=40	=40	=40	=40	=40	=40	=40	=40	=40
8d\L	8d\L	8D\L	8d\L	8d/L	8d/L	16d/LL	16d/LL	16fff\LL	8aa\L
.	.	.	.	.	.	16e/	16e/	16eee\	.
8A\	8A\	8AA\	16d\LL	16d/LL	16d/LL	16f/	16f/	16ddd\	16ff\LL
.	.	.	16c#\JJ	16c#/JJ	16c#/JJ	16e/JJ	16e/JJ	16eee\JJ	16gg\JJ
8F\	8F\	8FF\	8d\L	8d/L	8d/L	16d/LL	16d/LL	16fff\LL	8aa\L
.	.	.	.	.	.	16e/	16e/	16eee\	.
8A\J	8A\J	8AA\J	16d\LL	16d/LL	16d/LL	16f/	16f/	16ddd\	16ff\LL
.	.	.	16c#\JJ	16c#/JJ	16c#/JJ	16e/JJ	16e/JJ	16eee\JJ	16gg\JJ
8D\L	8D\L	8DD\L	8d\L	8d/L	8d/L	16d/LL	16d/LL	16fff\LL	8aa\L
.	.	.	.	.	.	16c#/	16e/	16ggg\	.
8A\	8A\	8AA\	16d\LL	16d/LL	16d/LL	16d/	16d/	16fff\	8ddd\
.	.	.	16c#\JJ	16c#/JJ	16c#/JJ	16e/JJ	16e/JJ	16eee\JJ	.
8F\J	8F\J	8FF\J	8d\J	8d/J	8d/J	16f/LL	16f/LL	16ddd\LL	8aa\
.	.	.	.	.	.	16g/	16g/	16ccc#\	.
8A\	8A\	8AA\	16d\LL	16d/LL	16d/LL	16f/	16f/	16ddd\	8ddd\J
.	.	.	16c#\JJ	16c#/JJ	16c#/JJ	16e/JJ	16e/JJ	16eee\JJ	.
=41	=41	=41	=41	=41	=41	=41	=41	=41	=41
8d\L	8d\L	8D\L	8d\L	8d/L	8d/L	16d/LL	16d/LL	16fff\LL	8aa\L
.	.	.	.	.	.	16e/	16e/	16eee\	.
8A\	8A\	8AA\	16d\LL	16d/LL	16d/LL	16f/	16f/	16ddd\	16ff\LL
.	.	.	16c#\JJ	16c#/JJ	16c#/JJ	16e/JJ	16e/JJ	16eee\JJ	16gg\JJ
8F\	8F\	8FF\	8d\L	8d/L	8d/L	16d/LL	16d/LL	16fff\LL	8aa\L
.	.	.	.	.	.	16e/	16e/	16eee\	.
8A\J	8A\J	8AA\J	16d\LL	16d/LL	16d/LL	16f/	16f/	16ddd\	16ff\LL
.	.	.	16c#\JJ	16c#/JJ	16c#/JJ	16e/JJ	16e/JJ	16eee\JJ	16gg\JJ
8D/L	8D/L	8DD/L	4d\	4d/	4d/	16d/LL	16d/LL	16fff\LL	8aa\L
.	.	.	.	.	.	16c#/	16e/	16ggg\	.
8DD/J	8DD/J	8DDD/J	.	.	.	16d/	16d/	16fff\	8ddd\J
.	.	.	.	.	.	16e/JJ	16e/JJ	16eee\JJ	.
8r	8r	8r	8r	8r	8r	16f/LL	16f/LL	8ddd\J	8aa\L
.	.	.	.	.	.	16g/	16g/	.	.
8D\	8D\	8DD\	16g\LL	16g/LL	16g/LL	16a/	16a/	8ddd\	16ddd\LL
.	.	.	16f#\JJ	16f#/JJ	16f#/JJ	16f#/JJ	16f#/JJ	.	16ccc\JJ
=42	=42	=42	=42	=42	=42	=42	=42	=42	=42
8G\L	8G\L	8GG\L	8g\L	8g/L	8g/L	16g/LL	16g/LL	8ddd\L	16bbn\LL
.	.	.	.	.	.	16a/	16a/	.	16aa\
8D\	8D\	8DD\	16g\LL	16g/LL	16g/LL	16b/	16b/	16bb\LL	16gg\
.	.	.	16f#\JJ	16f#/JJ	16f#/JJ	16a/JJ	16a/JJ	16ccc\JJ	16aa\JJ
8BB\	8BB\	8BBB\	8g\L	8g/L	8g/L	16g/LL	16g/LL	8ddd\L	16bbn\LL
.	.	.	.	.	.	16a/	16a/	.	16aa\
8D\J	8D\J	8DD\J	16g\LL	16g/LL	16g/LL	16b/	16b/	16bb\LL	16gg\
.	.	.	16f#\JJ	16f#/JJ	16f#/JJ	16a/JJ	16a/JJ	16ccc\JJ	16aa\JJ
8GG/L	8GG/L	8GGG/L	8g\L	8g/L	8g/L	16g/LL	16g/LL	8ddd\L	16bbn\LL
.	.	.	.	.	.	16f#/	16f#/	.	16ccc\
8D/	8D/	8DD/	16g\LL	16g/LL	16g/LL	16g/	16g/	8ggg\	16bbn\
.	.	.	16f#\JJ	16f#/JJ	16f#/JJ	16a/JJ	16a/JJ	.	16aa\JJ
8BB/J	8BB/J	8BBB/J	8g\J	8g/J	8g/J	16b/LL	16b/LL	8ddd\	16gg\LL
.	.	.	.	.	.	16cc/	16cc/	.	16aa\
8D/	8D/	8DD/	16g\LL	16g/LL	16g/LL	16b/	16b/	8ggg\J	16gg\
.	.	.	16f#\JJ	16f#/JJ	16f#/JJ	16a/JJ	16a/JJ	.	16aa\JJ
=43	=43	=43	=43	=43	=43	=43	=43	=43	=43
8G\L	8G\L	8GG\L	8g\L	8g/L	8g/L	16g/LL	16g/LL	8ddd\L	16bbn\LL
.	.	.	.	.	.	16a/	16a/	.	16aa\
8D\	8D\	8DD\	16g\LL	16g/LL	16g/LL	16b/	16b/	16bb\LL	16gg\
.	.	.	16f#\JJ	16f#/JJ	16f#/JJ	16a/JJ	16a/JJ	16ccc\JJ	16aa\JJ
8BB\	8BB\	8BBB\	8g\L	8g/L	8g/L	16g/LL	16g/LL	8ddd\L	16bbn\LL
.	.	.	.	.	.	16a/	16a/	.	16aa\
8D\J	8D\J	8DD\J	16g\LL	16g/LL	16g/LL	16b/	16b/	16bb\LL	16gg\
.	.	.	16f#\JJ	16f#/JJ	16f#/JJ	16a/JJ	16a/JJ	16ccc\JJ	16aa\JJ
8GG\L	8GG\L	8GGG\L	4g\	4g/	4g/	16g/LL	16g\LL	8ddd\L	16bbn\LL
.	.	.	.	.	.	16f#/	16a\	.	16ccc\
8G\J	8G\J	8GG\J	.	.	.	16g/	16b\	8ggg\	16bbn\
.	.	.	.	.	.	16a/JJ	16cc\JJ	.	16aa\JJ
8r	8r	8r	8r	8r	8r	16b\LL	8dd\J	8gg\J	8gg\
.	.	.	.	.	.	16cc\	.	.	.
8G\	8G\	8GG\	16cc\LL	16cc\LL	16cc\LL	16dd\	8gg\	16ggg\LL	8r
.	.	.	16b\JJ	16b\JJ	16b\JJ	16b\JJ	.	16fff\JJ	.
=44	=44	=44	=44	=44	=44	=44	=44	=44	=44
8c\L	8c\L	8C\L	8cc\L	8cc\L	8cc\L	16cc\LL	8gg\L	16eee\LL	1r
.	.	.	.	.	.	16dd\	.	16ddd\	.
8G\	8G\	8GG\	16cc\LL	16cc\LL	16cc\LL	16ee\	16ee\LL	16ccc\	.
.	.	.	16b\JJ	16b\JJ	16b\JJ	16dd\JJ	16ff\JJ	16ddd\JJ	.
8E\	8E\	8EE\	8cc\L	8cc\L	8cc\L	16cc\LL	8gg\L	16eee\LL	.
.	.	.	.	.	.	16dd\	.	16ddd\	.
8G\J	8G\J	8GG\J	16cc\LL	16cc\LL	16cc\LL	16ee\	16ee\LL	16ccc\	.
.	.	.	16b\JJ	16b\JJ	16b\JJ	16dd\JJ	16ff\JJ	16ddd\JJ	.
8C\L	8C\L	8CC\L	8cc\L	8cc\L	8cc\L	16cc\LL	8gg\L	16eee\LL	.
.	.	.	.	.	.	16b\	.	16fff\	.
8G\	8G\	8GG\	16cc\LL	16cc\LL	16cc\LL	16cc\	8ccc\	16eee\	.
.	.	.	16b\JJ	16b\JJ	16b\JJ	16dd\JJ	.	16ddd\JJ	.
8E\J	8E\J	8EE\J	8cc\J	8cc\J	8cc\J	16ee\LL	8gg\	16ccc\LL	.
.	.	.	.	.	.	16ff\	.	16bb\	.
8G\	8G\	8GG\	16cc\LL	16cc\LL	16cc\LL	16ee\	8ccc\J	16ccc\	.
.	.	.	16b\JJ	16b\JJ	16b\JJ	16dd\JJ	.	16ddd\JJ	.
=45	=45	=45	=45	=45	=45	=45	=45	=45	=45
8c\L	8c\L	8C\L	8cc\L	8cc\L	8cc\L	16cc\LL	8gg\L	16eee\LL	2r
.	.	.	.	.	.	16dd\	.	16ddd\	.
8G\	8G\	8GG\	16cc\LL	16cc\LL	16cc\LL	16ee\	16ee\LL	16ccc\	.
.	.	.	16b\JJ	16b\JJ	16b\JJ	16dd\JJ	16ff\JJ	16ddd\JJ	.
8E\	8E\	8EE\	8cc\L	8cc\L	8cc\L	16cc\LL	8gg\L	16eee\LL	.
.	.	.	.	.	.	16dd\	.	16ddd\	.
8G\J	8G\J	8GG\J	16cc\LL	16cc\LL	16cc\LL	16ee\	16ee\LL	16ccc\	.
.	.	.	16b\JJ	16b\JJ	16b\JJ	16dd\JJ	16ff\JJ	16ddd\JJ	.
8C\L	8C\L	8CC/L	4cc\	4cc\	4cc\	16cc\LL	8gg\L	16eee\LL	4r
.	.	.	.	.	.	16b\	.	16fff\	.
8G\J	8G\J	8CCC/J	.	.	.	16cc\	8ccc\J	16eee\	.
.	.	.	.	.	.	16dd\JJ	.	16ddd\JJ	.
16c\LL	16c\LL	8r	8r	8r	8r	16ee\LL	8r	8ccc\J	8r
16B-\	16B-\	.	.	.	.	16ff\	.	.	.
16A\	16A\	8CC/	16f\LL	16f/LL	16f/LL	16gg\	8cc\	8ccc\	8cc/
16G\JJ	16G\JJ	.	16e\JJ	16e/JJ	16e/JJ	16ee\JJ	.	.	.
=46	=46	=46	=46	=46	=46	=46	=46	=46	=46
16F\LL	16F\LL	16FF\LL	8f\L	8f/L	8f/L	16aa\LL	8cc\L	8ccc\L	8ff/L
16G\	16G\	16GG\	.	.	.	16gg\	.	.	.
16A\	16A\	16AA\	16f\LL	16f/LL	16f/LL	16ff\	16ff\LL	16aa\LL	8cc/
16G\JJ	16G\JJ	16GG\JJ	16e\JJ	16e/JJ	16e/JJ	16gg\JJ	16ee\JJ	16bb-\JJ	.
16F\LL	16F\LL	16FF\LL	8f\L	8f/L	8f/L	16aa\LL	8ff\L	8ccc\L	8a/
16G\	16G\	16GG\	.	.	.	16gg\	.	.	.
16A\	16A\	16AA\	16f\LL	16f/LL	16f/LL	16ff\	8cc\J	16aa\LL	8cc/J
16G\JJ	16G\JJ	16GG\JJ	16e\JJ	16e/JJ	16e/JJ	16gg\JJ	.	16bb-\JJ	.
16F\LL	16F\LL	16FF\LL	8f\L	8f/L	8f/L	16aa\LL	8cc\L	8ccc\L	8f/L
16E\	16E\	16EE\	.	.	.	16bb-\	.	.	.
16F\	16F\	16FF\	16f\LL	16f/LL	16f/LL	16aa\	16ccc\LL	8fff\	8cc/
16G\JJ	16G\JJ	16GG\JJ	16e\JJ	16e/JJ	16e/JJ	16gg\JJ	16bb-\JJ	.	.
16A\LL	16A\LL	16AA\LL	8f\J	8f/J	8f/J	16ff\LL	8ccc\L	8ccc\	8a/
16B-\	16B-\	16BB-\	.	.	.	16ee\	.	.	.
16A\	16A\	16AA\	16f\LL	16f/LL	16f/LL	16ff\	8cc\J	8fff\J	8cc/J
16G\JJ	16G\JJ	16GG\JJ	16e\JJ	16e/JJ	16e/JJ	16gg\JJ	.	.	.
=47	=47	=47	=47	=47	=47	=47	=47	=47	=47
16F\LL	16F\LL	16FF\LL	8f\L	8f/L	8f/L	16aa\LL	8cc\L	8ccc\L	8ff/L
16G\	16G\	16GG\	.	.	.	16gg\	.	.	.
16A\	16A\	16AA\	16f\LL	16f/LL	16f/LL	16ff\	16ff\LL	16aa\LL	8cc/
16G\JJ	16G\JJ	16GG\JJ	16e\JJ	16e/JJ	16e/JJ	16gg\JJ	16ee\JJ	16bb-\JJ	.
16F\LL	16F\LL	16FF\LL	8f\L	8f/L	8f/L	16aa\LL	8ff\L	8ccc\L	8a/
16G\	16G\	16GG\	.	.	.	16gg\	.	.	.
16A\	16A\	16AA\	16f\LL	16f/LL	16f/LL	16ff\	8cc\J	16aa\LL	8cc/J
16G\JJ	16G\JJ	16GG\JJ	16e\JJ	16e/JJ	16e/JJ	16gg\JJ	.	16bb-\JJ	.
16F\LL	16F\LL	16FF\LL	4f\	4f/	4f/	16aa\LL	8cc\L	8ccc\L	4f/
16E\	16E\	16EE\	.	.	.	16bb-\	.	.	.
16F\	16F\	16FF\	.	.	.	16aa\	16ccc\LL	8fff\	.
16G\JJ	16G\JJ	16GG\JJ	.	.	.	16gg\JJ	16bb-\JJ	.	.
8A\J	8A\J	8AA\J	8r	8r	8r	16ff\LL	8ccc\L	8ccc\	8r
.	.	.	.	.	.	16gg\	.	.	.
8F\	8F\	8FF\	8a\	8cc\	8ff\	16aa\	8ff\J	8aa\J	16cc/LL
.	.	.	.	.	.	16ff\JJ	.	.	16cc/JJ
=48	=48	=48	=48	=48	=48	=48	=48	=48	=48
8E\L	8E\L	8EE\L	8g\L	16cc\LL	16gg\LL	16gg\LL	16gg\LL	16gg\LL	4cc/
.	.	.	.	16dd\	16ff\	16ff\	16ff\	16ff\	.
8G\	8G\	8GG\	8b-\	16ee\	16gg\	16gg\	16gg\	16gg\	.
.	.	.	.	16ff\JJ	16aa\JJ	16aa\JJ	16aa\JJ	16aa\JJ	.
8C\	8C\	8CC\	8e\	8gg\L	16bb-\LL	16bb-\LL	16bb-\LL	16bb-\LL	8r
.	.	.	.	.	16aa\	16aa\	16aa\	16aa\	.
8F\J	8F\J	8FF\J	8cc\J	8ff\J	16bb-\	16bb-\	16bb-\	16bb-\	16cc/LL
.	.	.	.	.	16aa\JJ	16aa\JJ	16aa\JJ	16aa\JJ	16cc/JJ
8E\L	8E\L	8EE\L	4g\	4cc\	16gg\LL	16gg\LL	16gg\LL	16gg\LL	4cc/
.	.	.	.	.	16ff\	16ff\	16ff\	16ff\	.
8G\	8G\	8GG\	.	.	16ee\	16ee\	16ee\	16ee\	.
.	.	.	.	.	16dd\JJ	16dd\JJ	16dd\JJ	16dd\JJ	.
8C\	8C\	8CC\	8r	8r	16cc\LL	16cc\LL	16cc\LL	16cc\LL	8r
.	.	.	.	.	16ff\	16ff\	16ff\	16ff\	.
8A\J	8A\J	8AA\J	8a\	8cc\	16ee\	16ee\	16ee\	16ee\	16cc/LL
.	.	.	.	.	16ff\JJ	16ff\JJ	16ff\JJ	16ff\JJ	16cc/JJ
=49	=49	=49	=49	=49	=49	=49	=49	=49	=49
8E\L	8E\L	8EE\L	8g\L	16cc\LL	16gg\LL	16gg\LL	16gg\LL	16gg\LL	4cc/
.	.	.	.	16dd\	16ff\	16ff\	16ff\	16ff\	.
8G\	8G\	8GG\	8b-\	16ee\	16gg\	16gg\	16gg\	16gg\	.
.	.	.	.	16ff\JJ	16aa\JJ	16aa\JJ	16aa\JJ	16aa\JJ	.
8C\	8C\	8CC\	8e\	8gg\L	16bb-\LL	16bb-\LL	16bb-\LL	16bb-\LL	8r
.	.	.	.	.	16aa\	16aa\	16aa\	16aa\	.
8F\J	8F\J	8FF\J	8cc\J	8ff\J	16bb-\	16bb-\	16bb-\	16bb-\	16cc/LL
.	.	.	.	.	16aa\JJ	16aa\JJ	16aa\JJ	16aa\JJ	16cc/JJ
8E\L	8E\L	8EE\L	4g\	4cc\	16gg\LL	16gg\LL	16gg\LL	16gg\LL	4cc/
.	.	.	.	.	16ff\	16ff\	16ff\	16ff\	.
8G\	8G\	8GG\	.	.	16ee\	16ee\	16ee\	16ee\	.
.	.	.	.	.	16dd\JJ	16dd\JJ	16dd\JJ	16dd\JJ	.
8C\	8C\	8CC\	4r	4r	16cc\LL	16cc\LL	16cc\LL	16cc\LL	4r
.	.	.	.	.	16b-\	16b-\	16b-\	16dd\	.
8D\J	8D\J	8DD\J	.	.	16a\	16a\	16a\	16cc\	.
.	.	.	.	.	16g\JJ	16g\JJ	16b-\JJ	16b-\JJ	.
=50	=50	=50	=50	=50	=50	=50	=50	=50	=50
(8E-\L	(8E-\L	8EE-\	8A/	8c/	8f/	8f/L	(8cc\L	8a/	8r
8E-\	8E-\	8r	8r	8r	4cc\	16a/LL	8cc\	16ccc\LL	8f/L
.	.	.	.	.	.	16g/JJ	.	16bb-\JJ	.
8E-\	8E-\	8EE-\	8c\	8f/	.	8f/L	8cc\	16aa\LL	8a/
.	.	.	.	.	.	.	.	16bb-\	.
8E-\J)	8E-\J)	8r	8r	8r	4a/	16cc/LL	8cc\J)	16aa\	8cc/J
.	.	.	.	.	.	16b-/JJ	.	16gg\JJ	.
(8E-\L	(8E-\L	8EE-\	8f\	8a/	.	8a\L	(8cc\L	16ff\LL	8ff/L
.	.	.	.	.	.	.	.	16cc\	.
8E-\	8E-\	8r	8r	8r	4f/	8ff\J	8cc\	16dd\	8cc/
.	.	.	.	.	.	.	.	16ee\JJ	.
8E-\	8E-\	8EE-\	8a\	8cc\	.	16cc\LL	8cc\	16ff\LL	8a/
.	.	.	.	.	.	16b-\	.	16gg\	.
8E-\J)	8E-\J)	8r	8r	8r	[8cc\	16a\	8cc\J)	16aa\	8f/J
.	.	.	.	.	.	16g\JJ	.	16bb-\JJ	.
=51	=51	=51	=51	=51	=51	=51	=51	=51	=51
*	*	*	*	*	*	*	*	*	*
*	*	*	*	*	*	*^	*	*	*
(8D\L	(8D\L	8DD\	8f#\	8d/	8cc\]	8f#\L	(8a/L	8a\L	16ccc\LL	(8aa\L
.	.	.	.	.	.	.	.	.	16ddd\	.
8D\	8D\	8r	8r	8r	4a/	8f#\	8a/	16cc\LL	16eee-\	8aa\
.	.	.	.	.	.	.	.	16b-\JJ	16ddd\JJ	.
8D\	8D\	8DD\	8d\	8f#/	.	8f#\	8a/	8a\L	16ccc\LL	8aa\
.	.	.	.	.	.	.	.	.	16ddd\	.
8D\J)	8D\J)	8r	8r	8r	4f#/	8f#\J	8a/J)	16ee-\LL	16ccc\	8aa\J)
.	.	.	.	.	.	.	.	16dd\JJ	16bb-\JJ	.
(8D\L	(8D\L	8DD\	8f#\	8a/	.	8f#\L	(8a/L	8cc\L	16aa\LL	(8aa\L
.	.	.	.	.	.	.	.	.	16gg\	.
8D\	8D\	8r	8r	8r	4d/	8f#\	8a/	8aa\J	16ff#\	8aa\
.	.	.	.	.	.	.	.	.	16gg\JJ	.
8D\	8D\	8DD\	8a\	8cc\	.	8f#\	8a/	16dd\LL	16aa\LL	8aa\
.	.	.	.	.	.	.	.	16cc\	16bb-\	.
8D\J)	8D\J)	8r	8r	8r	[8dd\	8f#\J	8a/J)	16b-\	16ccc\	8aa\J)
.	.	.	.	.	.	.	.	16a\JJ	16ddd\JJ	.
*	*	*	*	*	*	*	*	*	*	*
*	*	*	*	*	*	*v	*v	*	*	*
=52	=52	=52	=52	=52	=52	=52	=52	=52	=52
(8F\L	(8F\L	8FF\	8B/	8d/	8dd\]	16g\LL	8b\L	8gg\L	(8ddd\L
.	.	.	.	.	.	16b\	.	.	.
8F\	8F\	8r	8r	8r	4b\	16dd\	8g\	16bb\LL	8ddd\
.	.	.	.	.	.	16cc\JJ	.	16aa\JJ	.
8F\	8F\	8FF\	8d\	8g/	.	16b\LL	8b\	8gg\L	8ddd\
.	.	.	.	.	.	16cc\	.	.	.
8F\J)	8F\J)	8r	8r	8r	4g/	16b\	8dd\J	16ddd\LL	8ddd\J)
.	.	.	.	.	.	16a\JJ	.	16ccc\JJ	.
(8F\L	(8F\L	8FF\	8g\	8b\	.	16g/LL	8gg\L	8bb\L	(8ddd\L
.	.	.	.	.	.	16d/	.	.	.
8F\	8F\	8r	8r	8r	4d/	16e/	8dd\	8ggg\J	8ddd\
.	.	.	.	.	.	16f/JJ	.	.	.
8F\	8F\	8FF\	8b\	8dd\	.	16g/LL	8b\	16ddd\LL	8ddd\
.	.	.	.	.	.	16f/	.	16ccc\	.
8F\J)	8F\J)	8r	8r	8r	[8dd\	16g/	8g\J	16bb\	8ddd\J)
.	.	.	.	.	.	16a/JJ	.	16aa\JJ	.
=53	=53	=53	=53	=53	=53	=53	=53	=53	=53
(8E\L	(8E\L	8EE\	8g#\	8e/	8dd\]	8b\L	(8b\L	(8gg#\L	16ddd\LL
.	.	.	.	.	.	.	.	.	16eee\
8E\	8E\	8r	8r	8r	4b\	16dd\LL	8b\	8gg#\	16fff\
.	.	.	.	.	.	16cc\JJ	.	.	16eee\JJ
8E\	8E\	8EE\	8e\	8g#/	.	8b\L	8b\	8gg#\	16ddd\LL
.	.	.	.	.	.	.	.	.	16eee\
8E\J)	8E\J)	8r	8r	8r	4g#/	16ff\LL	8b\J)	8gg#\J)	16ddd\
.	.	.	.	.	.	16ee\JJ	.	.	16ccc\JJ
(8E\L	(8E\L	8EE\	8g#\	8b\	.	8dd\L	(8b\L	(8gg#\L	16bbn\LL
.	.	.	.	.	.	.	.	.	16ccc\
8E\	8E\	8r	8r	8r	4e/	8bb\J	8b\	8gg#\	16ddd\
.	.	.	.	.	.	.	.	.	16ccc\JJ
8E\	8E\	8EE\	8b\	8dd\	.	16ee\LL	8b\	8gg#\	16bbn\LL
.	.	.	.	.	.	16dd\	.	.	16ccc\
8E\J)	8E\J)	8r	8r	8r	[8ee\	16cc\	8b\J)	8gg#\J)	16ddd\
.	.	.	.	.	.	16b\JJ	.	.	16eee\JJ
=54	=54	=54	=54	=54	=54	=54	=54	=54	=54
(8G\L	(8G\L	8GG\	8c#\	8e/	8ee\]	8cc#\L	8a\L	16aa\LL	8aa\
.	.	.	.	.	.	.	.	16ccc#\	.
8G\	8G\	8r	8r	8r	4cc#\	8a\	16cc#\LL	16eee\	8r
.	.	.	.	.	.	.	16b\JJ	16ddd\JJ	.
8G\	8G\	8GG\	8e\	8a/	.	8cc#\	8a\L	16ccc#\LL	4r
.	.	.	.	.	.	.	.	16ddd\	.
8G\J)	8G\J)	8r	8r	8r	4a/	8ee\J	16ee\LL	16ccc#\	.
.	.	.	.	.	.	.	16dd\JJ	16bb\JJ	.
(8G\L	(8G\L	8GG\	8a\	8cc#\	.	8aa\L	8cc#\L	16aa\LL	2r
.	.	.	.	.	.	.	.	16ee\	.
8G\	8G\	8r	8r	8r	4e/	8ee\	8aa\J	16ff\	.
.	.	.	.	.	.	.	.	16gg\JJ	.
8G\	8G\	8GG\	8cc#\	8ee\	.	8cc#\	16ee\LL	16aa\LL	.
.	.	.	.	.	.	.	16dd\	16bb\	.
8G\J)	8G\J)	8r	8r	8r	[8a/	8a\J	16cc#\	16ccc#\	.
.	.	.	.	.	.	.	16b\JJ	16ddd\JJ	.
=55	=55	=55	=55	=55	=55	=55	=55	=55	=55
(8F\L	(8F\L	8FF\	8a\	8f/	8a/]	(8cc\L	(8a/L	16eee-\LL	8cc\L
.	.	.	.	.	.	.	.	16fff\	.
8F\	8F\	8r	8r	8r	4ee-\	8cc\	8a/	16ggg\	16ee-\LL
.	.	.	.	.	.	.	.	16fff\JJ	16ee-\JJ
8F\	8F\	8FF\	8f\	8a/	.	8cc\	8a/	16eee-\LL	8cc\L
.	.	.	.	.	.	.	.	16ddd\	.
8F\J)	8F\J)	8r	8r	8r	4cc\	8cc\J)	8a/J)	16ccc\	16aa\LL
.	.	.	.	.	.	.	.	16bb-\JJ	16gg\JJ
(8F\L	(8F\L	8FF\	8a\	8cc\	.	(8cc\L	(8a/L	16aa\LL	8ff\L
.	.	.	.	.	.	.	.	16bb-\	.
8F\	8F\	8r	8r	8r	4a/	8cc\	8a/	16aa\	16ccc\LL
.	.	.	.	.	.	.	.	16gg\JJ	16bb-\JJ
8F\	8F\	8FF\	8cc\	8ee-\	.	8cc\J)	8a/J)	16ff\LL	16aa\LL
.	.	.	.	.	.	.	.	16ee-\	16gg\
8F\J)	8F\J)	8r	8r	8r	8cc\	8aa\	8ff\	16dd\	16ff\
.	.	.	.	.	.	.	.	16cc\JJ	16ee-\JJ
=56	=56	=56	=56	=56	=56	=56	=56	=56	=56
8BB-/L	8BB-/L	8BBB-/L	8b-\	8f/	8dd\	8bb-\L	8dd\L	8b-\	8ff\L
16D/LL	16D/LL	16DD/LL	8r	8r	8r	8ff\	16b-\LL	8r	16bb-\LL
16C/JJ	16C/JJ	16CC/JJ	.	.	.	.	16cc\JJ	.	16aa\JJ
8BB-\L	8BB-\L	8BBB-\L	8r	8r	8r	8ff\	8dd\L	4r	8bb-\L
16F\LL	16F\LL	16FF\LL	16B-/LL	16B-/LL	16B-/LL	8dd\J	8bb-\J	.	8ff\J
16E-\JJ	16E-\JJ	16EE-\JJ	16A/JJ	16A/JJ	16A/JJ	.	.	.	.
8D\L	8D\L	8DD\L	8B-/L	8B-/L	8B-/L	8dd\L	8bb-\L	8r	8ff\L
8B-\J	8B-\J	8BB-\J	16B-/LL	16B-/LL	16B-/LL	8b-\	8ff\	8bb-\L	16ddd\LL
.	.	.	16A/JJ	16A/JJ	16A/JJ	.	.	.	16ccc\JJ
16F\LL	16F\LL	16FF\LL	8B-/L	8B-/L	8B-/L	8b-\	8ff\	8bb-\	8ddd\L
16E-\	16E-\	16EE-\	.	.	.	.	.	.	.
16D\	16D\	16DD\	16B-/LL	16B-/LL	16B-/LL	8bb-\J	8dd\J	8ff\J	8ff\J
16C\JJ	16C\JJ	16CC\JJ	16A/JJ	16A/JJ	16A/JJ	.	.	.	.
=57	=57	=57	=57	=57	=57	=57	=57	=57	=57
8BB-/L	8BB-/L	8BBB-/L	8B-/	8B-/	8B-/	8bb-\L	8dd\L	8ff\L	8ff\L
16D/LL	16D/LL	16DD/LL	8r	8r	8r	8ff\	8b-\	8dd\	16bb-\LL
16C/JJ	16C/JJ	16CC/JJ	.	.	.	.	.	.	16aa\JJ
8BB-\L	8BB-\L	8BBB-\L	8r	8r	8r	8ff\	8b-\	8dd\	8bb-\L
16F\LL	16F\LL	16FF\LL	16B-/LL	16B-/LL	16B-/LL	8dd\J	8bb-\J	8b-\J	8ff\J
16E-\JJ	16E-\JJ	16EE-\JJ	16A/JJ	16A/JJ	16A/JJ	.	.	.	.
8D\L	8D\L	8DD\L	8B-/L	8B-/L	8B-/L	8dd\L	8bb-\L	8b-\L	8ff\L
8B-\J	8B-\J	8BB-\J	16B-/LL	16B-/LL	16B-/LL	8b-\	8ff\	8bb-\	16ddd\LL
.	.	.	16A/JJ	16A/JJ	16A/JJ	.	.	.	16ccc\JJ
16F\LL	16F\LL	16FF\LL	8B-/J	8B-/J	8B-/J	8b-\J	8ff\J	8bb-\J	8ddd\J
16E-\	16E-\	16EE-\	.	.	.	.	.	.	.
16D\	16D\	16DD\	8d\	8b-/	8ff\	8ff\	8ff\	8ff\	16ff\LL
16E-\JJ	16E-\JJ	16EE-\JJ	.	.	.	.	.	.	16ff\JJ
=58	=58	=58	=58	=58	=58	=58	=58	=58	=58
8F/L	8F/L	8FF/L	8c\	8a/	16cc\LL	16cc\LL	16cc\LL	16cc\LL	4ff\
.	.	.	.	.	16dd\	16dd\	16dd\	16dd\	.
8AA/	8AA/	8AAA/	4f\	4cc\	16ee-\	16ee-\	16ee-\	16ee-\	.
.	.	.	.	.	16cc\JJ	16cc\JJ	16cc\JJ	16cc\JJ	.
8BB-/	8BB-/	8BBB-/	.	.	16dd\LL	16dd\LL	16dd\LL	16dd\LL	8r
.	.	.	.	.	16b-\	16b-\	16b-\	16b-\	.
8D/J	8D/J	8DD/J	8d\	8b-\	16f\	16f\	16f\	16f\	16f/LL
.	.	.	.	.	16b-\JJ	16b-\JJ	16b-\JJ	16b-\JJ	16f/JJ
8F/L	8F/L	8FF/L	8c\	8a\L	16cc\LL	16cc\LL	16cc\LL	16cc\LL	4f/
.	.	.	.	.	16dd\	16dd\	16dd\	16dd\	.
8AA/	8AA/	8AAA/	4f\	8cc\	16ee-\	16ee-\	16ee-\	16ee-\	.
.	.	.	.	.	16cc\JJ	16cc\JJ	16cc\JJ	16cc\JJ	.
8BB-/	8BB-/	8BBB-/	.	8b-\	16dd\LL	16dd\LL	16dd\LL	16dd\LL	8r
.	.	.	.	.	16b-\JJ	16b-\JJ	16b-\JJ	16b-\JJ	.
8D/J	8D/J	8DD/J	8f\	8b-\J	8ff\J	8ff\J	8ff\J	8ff\J	16ff\LL
.	.	.	.	.	.	.	.	.	16ff\JJ
=59	=59	=59	=59	=59	=59	=59	=59	=59	=59
8G/L	8G/L	8GG/L	8B-\L	8b-/L	(16ee-\LL	(16ee-\LL	(16ee-\LL	(16ee-\LL	16bb-\LL
.	.	.	.	.	16dd\)	16dd\)	16dd\	16dd\	16ccc\
8E-/	8E-/	8EE-/	8e-\	8g/	(16cc\	(16cc\	16cc\	16cc\	16bb-\
.	.	.	.	.	16b-\JJ)	16b-\JJ)	16b-\JJ)	16b-\JJ)	16ccc\JJ
8F/	8F/	8FF/	8A\	8f/	8f/L	8f/L	8f/L	8f/L	8.cccT\L
8FF/J	8FF/J	8FFF/J	8c\J	8f/J	8at/J	8at/J	8a/J	8a/J	.
.	.	.	.	.	.	.	.	.	16bb-\Jk
8BB-/	8BB-/	4BBB-/	4d\	4f/	4b-\	8b-/L	4b-/	4b-/	4bb-\
8C/L	8C/L	.	.	.	.	16a/LL	.	.	.
.	.	.	.	.	.	16g/JJ	.	.	.
8D/	8D/	4r	4r	4r	4r	16f/LL	4r	8r	4r
.	.	.	.	.	.	16e-/	.	.	.
8BB-/J	8BB-/J	.	.	.	.	16d/	.	8ff\	.
.	.	.	.	.	.	16c/JJ	.	.	.
=60	=60	=60	=60	=60	=60	=60	=60	=60	=60
8E-/L	8E-/L	1r	1r	1r	1r	16B-/LL	1r	16gg\LL	1r
.	.	.	.	.	.	16e-/	.	16aa\	.
8D/	8D/	.	.	.	.	16B-/	.	16gg\	.
.	.	.	.	.	.	16e-/JJ	.	16aa\JJ	.
8C/	8C/	.	.	.	.	16c/LL	.	8.aat\L	.
.	.	.	.	.	.	16e-/	.	.	.
8F/J	8F/J	.	.	.	.	16c/	.	.	.
.	.	.	.	.	.	16e-/JJ	.	32gg\LLL	.
.	.	.	.	.	.	.	.	32aa\JJJ	.
8D/L	8D/L	.	.	.	.	16d/LL	.	8bb-\L	.
.	.	.	.	.	.	16f/	.	.	.
8C/	8C/	.	.	.	.	16d/	.	16b-\LL	.
.	.	.	.	.	.	16f/JJ	.	16cc\JJ	.
8BB-/	8BB-/	.	.	.	.	16d/LL	.	16dd\LL	.
.	.	.	.	.	.	16b-/	.	16ee-\	.
8D/J	8D/J	.	.	.	.	16d/	.	16ff\	.
.	.	.	.	.	.	16b-/JJ	.	16dd\JJ	.
=61	=61	=61	=61	=61	=61	=61	=61	=61	=61
8E-\	8E-\	1r	1r	1r	1r	16c/LL	1r	16gg\LL	1r
.	.	.	.	.	.	16b-/	.	16ee-\	.
8r	8r	.	.	.	.	16c/	.	16cc\	.
.	.	.	.	.	.	16b-/JJ	.	16ee-\JJ	.
8F\	8F\	.	.	.	.	16c/LL	.	16a\LL	.
.	.	.	.	.	.	16a/	.	16cc\	.
8r	8r	.	.	.	.	16c/	.	16ff\	.
.	.	.	.	.	.	16a/JJ	.	16ee-\JJ	.
8BB-/L	8BB-/L	.	.	.	.	8b-/L	.	16dd\LL	.
.	.	.	.	.	.	.	.	16ee-\	.
8C/	8C/	.	.	.	.	8B-/J	.	16ff\	.
.	.	.	.	.	.	.	.	16dd\JJ	.
8D/	8D/	.	.	.	.	8r	.	16b-\LL	.
.	.	.	.	.	.	.	.	16cc\	.
8BB-/J	8BB-/J	.	.	.	.	8dd\	.	16dd\	.
.	.	.	.	.	.	.	.	16b-\JJ	.
=62	=62	=62	=62	=62	=62	=62	=62	=62	=62
8C/L	8C/L	1r	1r	1r	1r	(16ee\LL	1r	16g/LL	1r
.	.	.	.	.	.	16ff#\)	.	16cc/	.
8BB-/	8BB-/	.	.	.	.	(16ee\	.	16g/	.
.	.	.	.	.	.	16ff#\JJ)	.	16cc/JJ	.
8AA/	8AA/	.	.	.	.	8.ff#t\L	.	16a\LL	.
.	.	.	.	.	.	.	.	16cc\	.
8D/J	8D/J	.	.	.	.	.	.	16a\	.
.	.	.	.	.	.	32ee\LLL	.	16cc\JJ	.
.	.	.	.	.	.	32ff#\JJJ	.	.	.
8BB-/L	8BB-/L	.	.	.	.	8gg\L	.	16b-\LL	.
.	.	.	.	.	.	.	.	16dd\	.
8AA/	8AA/	.	.	.	.	16g\LL	.	16b-\	.
.	.	.	.	.	.	16a\JJ	.	16dd\JJ	.
8GG/	8GG/	.	.	.	.	16b-\LL	.	16b-\LL	.
.	.	.	.	.	.	16cc\	.	16gg\	.
8BB-/J	8BB-/J	.	.	.	.	16dd\	.	16b-\	.
.	.	.	.	.	.	16b-\JJ	.	16gg\JJ	.
=63	=63	=63	=63	=63	=63	=63	=63	=63	=63
8C/	8C/	1r	1r	1r	1r	16ee-\LL	2r	16a\LL	1r
.	.	.	.	.	.	16cc\	.	16gg\	.
8r	8r	.	.	.	.	16a\	.	16a\	.
.	.	.	.	.	.	16cc\JJ	.	16gg\JJ	.
8D/	8D/	.	.	.	.	16f#\LL	.	16a\LL	.
.	.	.	.	.	.	16a\	.	16ff#\	.
8r	8r	.	.	.	.	16dd\	.	16a\	.
.	.	.	.	.	.	16cc\JJ	.	16ff#\JJ	.
8GG/L	8GG/L	.	.	.	.	16b-\LL	4r	8gg\L	.
.	.	.	.	.	.	16cc\	.	.	.
8AA/	8AA/	.	.	.	.	16dd\	.	8g\J	.
.	.	.	.	.	.	16b-\JJ	.	.	.
8BB-/	8BB-/	.	.	.	.	16g/LL	8r	8r	.
.	.	.	.	.	.	16a/	.	.	.
8GG/J	8GG/J	.	.	.	.	16b-/	8b-\	8bb-\	.
.	.	.	.	.	.	16g/JJ	.	.	.
=64	=64	=64	=64	=64	=64	=64	=64	=64	=64
8AA-/L	8AA-/L	1r	1r	1r	1r	16e-/LL	16cc\LL	(8bb-\L	1r
.	.	.	.	.	.	16a-/	16dd\	.	.
8GG/	8GG/	.	.	.	.	16e-/	16cc\	8aa-\J)	.
.	.	.	.	.	.	16a-/JJ	16dd\JJ	.	.
8FF/	8FF/	.	.	.	.	16f/LL	8.ddt\L	8r	.
.	.	.	.	.	.	16a-/	.	.	.
8BB-/J	8BB-/J	.	.	.	.	16f/	.	8aa-\	.
.	.	.	.	.	.	16a-/JJ	32cc\LLL	.	.
.	.	.	.	.	.	.	32dd\JJJ	.	.
8GG/L	8GG/L	.	.	.	.	16g/LL	8ee-/L	(8aa-\L	.
.	.	.	.	.	.	16b-/	.	.	.
8FF/	8FF/	.	.	.	.	16g/	16e-/LL	8gg\J)	.
.	.	.	.	.	.	16b-/JJ	16f/JJ	.	.
8EE-/	8EE-/	.	.	.	.	16g/LL	16g/LL	8r	.
.	.	.	.	.	.	16ee-/	16a-/	.	.
8GG/J	8GG/J	.	.	.	.	16g/	16b-/	8ee-\	.
.	.	.	.	.	.	16ee-/JJ	16g/JJ	.	.
=65	=65	=65	=65	=65	=65	=65	=65	=65	=65
8AA-/	8AA-/	1r	1r	1r	1r	16f/LL	16cc/LL	(8ee-\L	2r
.	.	.	.	.	.	16ee-/	16a-/	.	.
8r	8r	.	.	.	.	16f/	16f/	8dd\J)	.
.	.	.	.	.	.	16ee-/JJ	16a-/JJ	.	.
8BB-/	8BB-/	.	.	.	.	16f/LL	16d/LL	8r	.
.	.	.	.	.	.	16dd/	16f/	.	.
8r	8r	.	.	.	.	16f/	16b-/	8ff\	.
.	.	.	.	.	.	16dd/JJ	16a-/JJ	.	.
8EE-/L	8EE-/L	.	.	.	.	4e-/	16g/LL	(8ff\L	4r
.	.	.	.	.	.	.	16a-/	.	.
8FF/	8FF/	.	.	.	.	.	16b-/	8ee-\J)	.
.	.	.	.	.	.	.	16g/JJ	.	.
8GG/	8GG/	.	.	.	.	8r	16e-/LL	8r	8r
.	.	.	.	.	.	.	16f/	.	.
8EE-/J	8EE-/J	.	.	.	.	8gg\	16g/	8eee-\	8gg\
.	.	.	.	.	.	.	16e-/JJ	.	.
=66	=66	=66	=66	=66	=66	=66	=66	=66	=66
8FF/L	8FF/L	1r	1r	1r	1r	(8gg\L	16c/LL	(8eee-\L	16aa\LL
.	.	.	.	.	.	.	16f/	.	16bbn\
8EE-/	8EE-/	.	.	.	.	8ff\J)	16c/	8ddd\J)	16aa\
.	.	.	.	.	.	.	16f/JJ	.	16bbn\JJ
8DD/	8DD/	.	.	.	.	8r	16d/LL	8r	8.bbnt\L
.	.	.	.	.	.	.	16f/	.	.
8GG/J	8GG/J	.	.	.	.	8ff\	16d/	8ddd\	.
.	.	.	.	.	.	.	16f/JJ	.	32aa\LLL
.	.	.	.	.	.	.	.	.	32bbn\JJJ
8EE-/L	8EE-/L	.	.	.	.	(8ff\L	16e-/LL	(8ddd\L	16ccc\LL
.	.	.	.	.	.	.	16g/	.	16bbn\
8DD/	8DD/	.	.	.	.	8ee-\J)	16e-/	8ccc\J)	16ccc\
.	.	.	.	.	.	.	16g/JJ	.	16ddd\JJ
8CC/	8CC/	.	.	.	.	8r	16e-/LL	8r	16ccc\LL
.	.	.	.	.	.	.	16cc/	.	16ddd\
8C/J	8C/J	.	.	.	.	8cc\	16e-/	8gg\	16eee-\
.	.	.	.	.	.	.	16cc/JJ	.	16ccc\JJ
=67	=67	=67	=67	=67	=67	=67	=67	=67	=67
8F/L	8F/L	2r	2r	2r	2r	(8cc\L	16d/LL	8aa-\L	16ddd\LL
.	.	.	.	.	.	.	16cc/	.	16eee-\
8D/	8D/	.	.	.	.	8b\J)	16d/	8ff\	16ddd\
.	.	.	.	.	.	.	16cc/JJ	.	16ccc\JJ
8G/	8G/	.	.	.	.	8r	16d/LL	8dd\	16bbn\LL
.	.	.	.	.	.	.	16b/	.	16aa\
8GG/J	8GG/J	.	.	.	.	8dd\	16d/	8bb\J	16gg\
.	.	.	.	.	.	.	16b/JJ	.	16ff\JJ
8C/L	8C/L	4r	4r	4r	4r	(8dd\L	8cc/L	8gg\L	16ee-\LL
.	.	.	.	.	.	.	.	.	16ff\
8D/J	8D/J	.	.	.	.	8cc\J)	8c/J	8ccc\J	16gg\
.	.	.	.	.	.	.	.	.	16ee-\JJ
16E-\LL	16E-\LL	8r	8r	8r	8r	8r	8r	8r	8cc\J
16F\	16F\	.	.	.	.	.	.	.	.
16E-\	16E-\	8CCC/	8cc\	8cc\	8cc\	8g/	8cc\	16gg\LL	8cc/
16D\JJ	16D\JJ	.	.	.	.	.	.	16ff\JJ	.
=68	=68	=68	=68	=68	=68	=68	=68	=68	=68
16C\LL	16C\LL	16CC\LL	8g\L	8g/L	8g/L	16cc/LL	8g/L	16ee-\LL	8ee-\L
16D\	16D\	16DD\	.	.	.	16g/	.	16dd\	.
16E-\	16E-\	16EE-\	16e-\LL	16e-/LL	16e-/LL	16g/	16e-/LL	16cc\	8gg\
16D\JJ	16D\JJ	16DD\JJ	16f\JJ	16f/JJ	16f/JJ	16b/JJ	16f/JJ	16dd\JJ	.
16C\LL	16C\LL	16CC\LL	8g\L	8g/L	8g/L	16cc/LL	8g/L	16ee-\LL	8ee-\
16D\	16D\	16DD\	.	.	.	16g/	.	16ff\	.
16E-\	16E-\	16EE-\	16e-\LL	16e-/LL	16e-/LL	16g/	16e-/LL	16gg\	8cc\J
16D\JJ	16D\JJ	16DD\JJ	16f\JJ	16f/JJ	16f/JJ	16b/JJ	16f/JJ	16ff\JJ	.
16C/LL	16C/LL	16CC/LL	8g\L	8g/L	8g/L	16cc/LL	8g/L	16ee-\LL	8ee-\L
16BB/	16BB/	16BBB/	.	.	.	16g/	.	16dd\	.
16C/	16C/	16CC/	8cc\	8cc/	8cc/	16g/	8cc/	16ee-\	8gg\
16D/JJ	16D/JJ	16DD/JJ	.	.	.	16b/JJ	.	16ff\JJ	.
16E-\LL	16E-\LL	16EE-\LL	8g\	8g/	8g/	16cc/LL	8g/	16gg\LL	8ccc\
16F\	16F\	16FF\	.	.	.	16g/	.	16aa-\	.
16E-\	16E-\	16EE-\	8cc\J	8cc/J	8cc/J	16g/	8cc/J	16gg\	8gg\J
16D\JJ	16D\JJ	16DD\JJ	.	.	.	16b/JJ	.	16ff\JJ	.
=69	=69	=69	=69	=69	=69	=69	=69	=69	=69
16C\LL	16C\LL	16CC\LL	8g\L	8g/L	8g/L	16cc/LL	8g/L	16ee-\LL	8ee-\L
16D\	16D\	16DD\	.	.	.	16g/	.	16dd\	.
16E-\	16E-\	16EE-\	16e-\LL	16e-/LL	16e-/LL	16g/	16e-/LL	16cc\	8gg\
16D\JJ	16D\JJ	16DD\JJ	16f\JJ	16f/JJ	16f/JJ	16b/JJ	16f/JJ	16dd\JJ	.
16C\LL	16C\LL	16CC\LL	8g\L	8g/L	8g/L	16cc/LL	8g/L	16ee-\LL	8ee-\
16D\	16D\	16DD\	.	.	.	16g/	.	16ff\	.
16E-\	16E-\	16EE-\	16e-\LL	16e-/LL	16e-/LL	16g/	16e-/LL	16gg\	8cc\J
16D\JJ	16D\JJ	16DD\JJ	16f\JJ	16f/JJ	16f/JJ	16b/JJ	16f/JJ	16ff\JJ	.
16C/LL	16C/LL	16CC/LL	8g\L	8g/L	8g/L	16cc/LL	8g/L	16ee-\LL	8ee-\L
16BB/	16BB/	16BBB/	.	.	.	16g/	.	16dd\	.
16C/	16C/	16CC/	8cc\	8cc/	8cc/	16a/	8cc/J	16ee-\	8gg\
16D/JJ	16D/JJ	16DD/JJ	.	.	.	16b/JJ	.	16ff\JJ	.
8E-/J	8E-/J	8EE-/J	8g\J	8g/J	8g/J	16cc\LL	16g/LL	16gg\LL	8ccc\J
.	.	.	.	.	.	16dd\	16a/	16ff\	.
8C/	8C/	8CC/	8r	8r	8cc\	16ee-\	16b/	16gg\	8r
.	.	.	.	.	.	16ff\JJ	16cc/JJ	16aa\JJ	.
=70	=70	=70	=70	=70	=70	=70	=70	=70	=70
8G\L	8G\L	8GG\L	8r	8r	16dd\LL	16gg\LL	16dd\LL	16bb\LL	8r
.	.	.	.	.	16cc\	16ff\	16cc\	16aa\	.
8GG\J	8GG\J	8GGG\J	8g\	8g/	16dd\	16gg\	16dd\	16bb\	16gg\LL
.	.	.	.	.	16ee-\JJ	16aa\JJ	16ee-\JJ	16ccc\JJ	16gg\JJ
8r	8r	8r	8g\L	8g/L	16ff\LL	16bb\LL	16ff\LL	16ddd\LL	8gg\
.	.	.	.	.	16ee-\	16aa\	16ee-\	16ccc\	.
8G\	8G\	8GG\	8G\J	8G/J	16ff\	16bb\	16ff\	16ddd\	8r
.	.	.	.	.	16ee-\JJ	16ccc\JJ	16ee-\JJ	16eee-\JJ	.
8G\L	8G\L	8GG\L	8r	8r	16dd\LL	8ddd\L	16dd\LL	16fff\LL	8r
.	.	.	.	.	16cc\	.	16cc\	16eee-\	.
8GG\J	8GG\J	8GGG\J	8g\	8g/	16b\	8gg\J	16b\	16ddd\	16gg\LL
.	.	.	.	.	16a\JJ	.	16a\JJ	16ccc\JJ	16gg\JJ
8r	8r	8r	8g\L	8g/L	16g\LL	8r	16g\LL	16bb\LL	8gg\
.	.	.	.	.	16cc\	.	16cc\	16aa\	.
8G\	8G\	8GG\	8G\J	8G/J	16b\	8ddd\	16b\	16gg\	8r
.	.	.	.	.	16cc\JJ	.	16cc\JJ	16aa\JJ	.
=71	=71	=71	=71	=71	=71	=71	=71	=71	=71
8G\L	8G\L	8GG\L	8r	8r	16dd\LL	16gg\LL	16dd\LL	16bb\LL	8r
.	.	.	.	.	16cc\	16ff\	16cc\	16aa\	.
8GG\J	8GG\J	8GGG\J	8g\	8g/	16dd\	16gg\	16dd\	16bb\	16gg\LL
.	.	.	.	.	16ee-\JJ	16aa\JJ	16ee-\JJ	16ccc\JJ	16gg\JJ
8r	8r	8r	8g\L	8g/L	16ff\LL	16bb\LL	16ff\LL	16ddd\LL	8gg\
.	.	.	.	.	16ee-\	16aa\	16ee-\	16ccc\	.
8G\	8G\	8GG\	8G\J	8G/J	16ff\	16bb\	16ff\	16ddd\	8r
.	.	.	.	.	16ee-\JJ	16ccc\JJ	16ee-\JJ	16eee-\JJ	.
8G\L	8G\L	8GG\L	8r	8r	16dd\LL	8ddd\L	16dd\LL	16fff\LL	8r
.	.	.	.	.	16cc\	.	16cc\	16eee-\	.
8GG\	8GG\	8GGG\	8g\	8g/	16b\	8gg\J	16b\	16ddd\	16gg\LL
.	.	.	.	.	16a\JJ	.	16a\JJ	16ccc\JJ	16gg\JJ
8G\	8G\	8GG\	8g\L	8g/L	16g/LL	8r	16g/LL	16bb\LL	8gg\
.	.	.	.	.	16f/	.	16f/	16aa\	.
8F\J	8F\J	8FF\J	8G\J	8G/J	16e-/	16gg\LL	16e-/	16bb\	8r
.	.	.	.	.	16d/JJ	16aa-\JJ	16d/JJ	16gg\JJ	.
=72	=72	=72	=72	=72	=72	=72	=72	=72	=72
(8E\L	(8E\L	8EE\	8G/	8c/	8c/	16bb-\LL	8c/L	8ccc\	8r
.	.	.	.	.	.	16aa-\	.	.	.
8E\	8E\	8r	8r	8r	4cc\	16gg\	16e/LL	8cc\L	(8bb-\L
.	.	.	.	.	.	16ff\JJ	16d/JJ	.	.
8E\	8E\	8EE\	8c\	8e/	.	16gg\LL	8c/L	8ee\	8bb-\
.	.	.	.	.	.	16ff\	.	.	.
8E\J)	8E\J)	8r	8r	8r	4g/	16ee\	16g/LL	8gg\J	8bb-\J)
.	.	.	.	.	.	16dd\JJ	16f/JJ	.	.
(8E\L	(8E\L	8EE\	8e\	8g/	.	16cc\LL	8e/L	8ccc\L	(8bb-\L
.	.	.	.	.	.	16g\	.	.	.
8E\	8E\	8r	8r	8r	4e/	16a\	8cc/J	8gg\	8bb-\
.	.	.	.	.	.	16b\JJ	.	.	.
8E\	8E\	8EE\	8g\	8b-\	.	16cc\LL	16g/LL	8ee\	8bb-\
.	.	.	.	.	.	16dd\	16f/	.	.
8E\J)	8E\J)	8r	8r	8r	[8c/	16ee\	16e/	8cc\J	8bb-\J)
.	.	.	.	.	.	16cc\JJ	16d/JJ	.	.
=73	=73	=73	=73	=73	=73	=73	=73	=73	=73
*	*	*	*	*	*	*	*	*	*
*	*	*	*	*	*	*^	*	*	*
(8E-\L	(8E-\L	8EE-\	8A/	8c/	8c/]	8r	8ff/	16c/LL	8ff\L	8aa\
.	.	.	.	.	.	.	.	16a/	.	.
8E-\	8E-\	8r	8r	8r	4cc\	8f\L	(8cc/L	16cc/	16aa\LL	8f/L
.	.	.	.	.	.	.	.	16b-/JJ	16gg\JJ	.
8E-\	8E-\	8EE-\	8c\	8f/	.	8f\	8cc/	16a/LL	8ff\L	8a/
.	.	.	.	.	.	.	.	16b-/	.	.
8E-\J)	8E-\J)	8r	8r	8r	4a/	8f\J	8cc/J)	16a/	16ccc\LL	8cc/J
.	.	.	.	.	.	.	.	16g/JJ	16bb-\JJ	.
(8E-\L	(8E-\L	8EE-\	8f\	8a/	.	8f\L	(8cc/L	16f/LL	8aa\L	8ff/L
.	.	.	.	.	.	.	.	16c/	.	.
8E-\	8E-\	8r	8r	8r	4f/	8f\	8cc/	16d/	8fff\J	8cc/
.	.	.	.	.	.	.	.	16e/JJ	.	.
8E-\	8E-\	8EE-\	8a\	8cc\	.	8f\	8cc/	16f/LL	16ccc\LL	8a/
.	.	.	.	.	.	.	.	16g/	16bb-\	.
8E-\J)	8E-\J)	8r	8r	8r	[8c/	8f\J	8cc/J)	16a/	16aa\	8f/J
.	.	.	.	.	.	.	.	16b-/JJ	16gg\JJ	.
*	*	*	*	*	*	*	*	*	*	*
*	*	*	*	*	*	*v	*v	*	*	*
=74	=74	=74	=74	=74	=74	=74	=74	=74	=74
(8D\L	(8D\L	8DD\	8A/	8d/	8c/]	8a\L	16cc\LL	(8ff#\L	(8aa\L
.	.	.	.	.	.	.	16dd\	.	.
8D\	8D\	8r	8r	8r	4cc\	16cc\LL	16ee-\	8ff#\	8aa\
.	.	.	.	.	.	16b-\JJ	16dd\JJ	.	.
8D\	8D\	8DD\	8d\	8f#/	.	8a\L	16cc\LL	8ff#\	8aa\
.	.	.	.	.	.	.	16dd\	.	.
8D\J)	8D\J)	8r	8r	8r	4a/	16ee-\LL	16cc\	8ff#\J)	8aa\J)
.	.	.	.	.	.	16dd\JJ	16b-\JJ	.	.
(8D\L	(8D\L	8DD\	8f#\	8a/	.	8cc\L	16a/LL	(8ff#\L	(8aa\L
.	.	.	.	.	.	.	16b-/	.	.
8D\	8D\	8r	8r	8r	4f#/	8aa\J	16a/	8ff#\	8aa\
.	.	.	.	.	.	.	16g/JJ	.	.
8D\	8D\	8DD\	8a\	8cc\	.	16dd\LL	16f#/LL	8ff#\J)	8aa\
.	.	.	.	.	.	16cc\	16a/	.	.
8D\J)	8D\J)	8r	8r	8r	8dd\	16b-\	16b-/	8ddd\	8aa\J)
.	.	.	.	.	.	16a\JJ	16cc/JJ	.	.
=75	=75	=75	=75	=75	=75	=75	=75	=75	=75
16G\LL	16G\LL	16GG\LL	8g\L	8b-/L	8dd\L	16b-\LL	8dd\L	[1ddd\	8bb-\L
16A\	16A\	16AA\	.	.	.	16cc\	.	.	.
16B-\	16B-\	16BB-\	16g\LL	16g/LL	16b-\LL	16dd\	16b-\LL	.	16gg\LL
16A\JJ	16A\JJ	16AA\JJ	16f#\JJ	16f#/JJ	16cc\JJ	16cc\JJ	16cc\JJ	.	16aa\JJ
16G\LL	16G\LL	16GG\LL	8g\L	8g/L	8dd\L	16b-\LL	8dd\L	.	8bb-\L
16A\	16A\	16AA\	.	.	.	16cc\	.	.	.
16B-\	16B-\	16BB-\	16g\LL	16g/LL	16b-\LL	16dd\	16b-\LL	.	16gg\LL
16A\JJ	16A\JJ	16AA\JJ	16f#\JJ	16f#/JJ	16cc\JJ	16cc\JJ	16cc\JJ	.	16aa\JJ
16G\LL	16G\LL	16GG\LL	8g\L	8g/L	8dd\L	16b-\LL	8dd\L	.	8bb-\L
16F#\	16F#\	16FF#\	.	.	.	16cc\	.	.	.
16G\	16G\	16GG\	16g\LL	16g/LL	8gg\	16b-\	8gg\	.	8ddd\
16A\JJ	16A\JJ	16AA\JJ	16f#\JJ	16f#/JJ	.	16a\JJ	.	.	.
16B-\LL	16B-\LL	16BB-\LL	8g\L	8g/L	8dd\	16g/LL	8dd\	.	8bb-\
16c\	16c\	16C\	.	.	.	16f#/	.	.	.
16B-\	16B-\	16BB-\	16g\LL	16g/LL	8gg\J	16g/	8gg\J	.	8ddd\J
16A\JJ	16A\JJ	16AA\JJ	16f#\JJ	16f#/JJ	.	16a/JJ	.	.	.
=76	=76	=76	=76	=76	=76	=76	=76	=76	=76
16G\LL	16G\LL	16GG\LL	8g\L	8g/L	8dd\L	16b-\LL	8dd\L	2ddd\_	8bb-\L
16A\	16A\	16AA\	.	.	.	16cc\	.	.	.
16B-\	16B-\	16BB-\	16g\LL	16g/LL	16b-\LL	16dd\	16b-\LL	.	16gg\LL
16A\JJ	16A\JJ	16AA\JJ	16f#\JJ	16f#/JJ	16cc\JJ	16cc\JJ	16cc\JJ	.	16aa\JJ
16G\LL	16G\LL	16GG\LL	8g\L	8g/L	8dd\L	16b-\LL	8dd\L	.	8bb-\L
16A\	16A\	16AA\	.	.	.	16cc\	.	.	.
16B-\	16B-\	16BB-\	16g\LL	16g/LL	16b-\LL	16dd\	16b-\LL	.	16gg\LL
16A\JJ	16A\JJ	16AA\JJ	16f#\JJ	16f#/JJ	16cc\JJ	16cc\JJ	16cc\JJ	.	16aa\JJ
16G\LL	16G\LL	16GG\LL	8g\L	8g/L	8dd\L	16b-\LL	8dd\L	8ddd\L]	8bb-\
16F#\	16F#\	16FF#\	.	.	.	16cc\	.	.	.
16G\	16G\	16GG\	16g\LL	16g/LL	8gg\	16b-\	8gg\	8dd\J	8ddd\L
16A\JJ	16A\JJ	16AA\JJ	16f#\JJ	16f#/JJ	.	16a\JJ	.	.	.
16B-\LL	16B-\LL	16BB-\LL	8g\	8g/	8dd\J	16g/LL	8dd\J	8r	8ggg\
16A\	16A\	16AA\	.	.	.	16a/	.	.	.
16B-\	16B-\	16BB-\	8G/	8r	8bb-\	16g/	8r	16gg\LL	8ddd\J
16G\JJ	16G\JJ	16GG\JJ	.	.	.	16f/JJ	.	16bb-\JJ	.
=77	=77	=77	=77	=77	=77	=77	=77	=77	=77
16C/LL	16C/LL	8CC\L	16c\LL	1ee-\	2bb-\	16e-/LL	8r	16cc\LL	4eee-\
16BB-/	16BB-/	.	16B-\	.	.	16d/	.	16bb-\	.
16C/	16C/	8C\J	16c\	.	.	16e-/	8gg\L	16cc\	.
16D/JJ	16D/JJ	.	16d\JJ	.	.	16f/JJ	.	16bb-\JJ	.
16E-\LL	16E-\LL	8r	16e-\LL	.	.	16g/LL	8ccc\	16cc\LL	4r
16D\	16D\	.	16d\	.	.	16f/	.	16bb-\	.
16E-\	16E-\	8C\	16e-\	.	.	16g/	8gg\J	16cc\	.
16C\JJ	16C\JJ	.	16c\JJ	.	.	16e-/JJ	.	16bb-\JJ	.
16F\LL	16F\LL	16FF\LL	8f\L	.	[2aa\	16a/LL	[2aa\	16cc\LL	8r
16E-\	16E-\	16EE-\	.	.	.	16g/	.	16aa\	.
16F\	16F\	16FF\	8F\J	.	.	16a/	.	16cc\	8ccc\L
16G\JJ	16G\JJ	16GG\JJ	.	.	.	16b-/JJ	.	16aa\JJ	.
16A\LL	16A\LL	16AA\LL	8r	.	.	16cc/LL	.	16cc\LL	8fff\
16G\	16G\	16GG\	.	.	.	16b-/	.	16aa\	.
16A\	16A\	16AA\	8F/	.	.	16cc/	.	16cc\	8ccc\J
16F\JJ	16F\JJ	16FF\JJ	.	.	.	16a/JJ	.	16aa\JJ	.
=78	=78	=78	=78	=78	=78	=78	=78	=78	=78
16BB-/LL	16BB-/LL	8BBB-\L	16B-/LL	1dd\	2aa\]	16dd\LL	8aa\L]	16b-\LL	4ddd\
16AA/	16AA/	.	16A/	.	.	16cc\	.	16aa\	.
16BB-/	16BB-/	8BB-\J	16B-/	.	.	16dd\	8ff\	16b-\	.
16C/JJ	16C/JJ	.	16c/JJ	.	.	16ee-\JJ	.	16aa\JJ	.
16D/LL	16D/LL	8r	16d/LL	.	.	16ff\LL	8bb-\	16b-\LL	4r
16C/	16C/	.	16c/	.	.	16ee-\	.	16aa\	.
16D/	16D/	8BB-\	16d/	.	.	16ff\	8ff\J	16b-\	.
16BB-/JJ	16BB-/JJ	.	16B-/JJ	.	.	16dd\JJ	.	16aa\JJ	.
16E-\LL	16E-\LL	16EE-\LL	8e-/L	.	[2gg\	16gg\LL	[2gg\	16b-\LL	8r
16D\	16D\	16DD\	.	.	.	16ff#\	.	16gg\	.
16E-\	16E-\	16EE-\	8E-/J	.	.	16gg\	.	16b-\	8bb-\L
16F\JJ	16F\JJ	16FF\JJ	.	.	.	16aa\JJ	.	16gg\JJ	.
16G\LL	16G\LL	16GG\LL	8r	.	.	16bb-\LL	.	16b-\LL	8eee-\
16F\	16F\	16FF\	.	.	.	16aa\	.	16gg\	.
16G\	16G\	16GG\	8E-/	.	.	16bb-\	.	16b-\	8bb-\J
16E-\JJ	16E-\JJ	16EE-\JJ	.	.	.	16gg\JJ	.	16gg\JJ	.
=79	=79	=79	=79	=79	=79	=79	=79	=79	=79
16AA/LL	16AA/LL	8AAA\L	16A/LL	2.cc\	2gg\]	8.ccc\L	8gg\L]	16a\LL	4ccc\
16GG/	16GG/	.	16G/	.	.	.	.	16gg\	.
16AA/	16AA/	8AA\J	16A/	.	.	.	8ee\	16a\	.
16BB-/JJ	16BB-/JJ	.	16B-/JJ	.	.	16bb-\Jk	.	16gg\JJ	.
16C/LL	16C/LL	8r	16c/LL	.	.	16aa\LL	8aa\	16a\LL	4r
16BB-/	16BB-/	.	16B-/	.	.	16gg\	.	16gg\	.
16C/	16C/	8AA\	16c/	.	.	16ff#\	8ee\J	16a\	.
16AA/JJ	16AA/JJ	.	16A/JJ	.	.	16ee\JJ	.	16gg\JJ	.
16D/LL	16D/LL	16DD/LL	8d/L	.	2ff#\	8.dd\L	4.ff#t\	16a\LL	8r
16C/	16C/	16CC/	.	.	.	.	.	16ff#\	.
16D/	16D/	16DD/	8D/J	.	.	.	.	16a\	8aa\L
16E-/JJ	16E-/JJ	16EE-/JJ	.	.	.	16cc\Jk	.	16ff#\JJ	.
16D/LL	16D/LL	16DD/LL	8r	4a/	.	16b-/LL	.	16a\LL	8ddd\
16C/	16C/	16CC/	.	.	.	16a/	.	16ff#\	.
16BB-/	16BB-/	16BBB-/	16dd\LL	.	.	16g/	16gg\LL	16a\	8ccc\J
16AA/JJ	16AA/JJ	16AAA/JJ	16cc\JJ	.	.	16f#/JJ	16aa\JJ	16ff#\JJ	.
=80	=80	=80	=80	=80	=80	=80	=80	=80	=80
8GG/L	8GG/L	8GGG/L	8dd\L	4b-\	8gg\L	8g/L	8bb-\L	16g/	8bb-\L
.	.	.	.	.	.	.	.	16bb-\LL	.
8D/	8D/	8DD/	16dd\LL	.	16b-\LL	16b-/LL	16gg\LL	16ddd\	8gg\
.	.	.	16cc\JJ	.	16a\JJ	16a/JJ	16ff#\JJ	16ccc\JJ	.
8D/	8D/	8DD/	8b-\L	8r	8g\L	8g\L	8gg\L	16bb-\LL	8bb-\
.	.	.	.	.	.	.	.	16ccc\	.
8BB-/J	8BB-/J	8BBB-/J	16b-\LL	16gg\LL	16dd\LL	16dd\LL	8dd\J	16bb-\	8ddd\J
.	.	.	16a\JJ	16ff#\JJ	16cc\JJ	16cc\JJ	.	16aa\JJ	.
8BB-/L	8BB-/L	8BBB-/L	4g\	8gg\L	8b-\L	8b-\L	8dd\L	16gg\LL	8ggg\L
.	.	.	.	.	.	.	.	16aa\	.
8GG/	8GG/	8GGG/	.	16gg\LL	8gg\J	8gg\J	16bb-\LL	16bb-\	8ddd\
.	.	.	.	16ff#\JJ	.	.	16aa\JJ	16ccc\JJ	.
8GG/	8GG/	8GGG/	8r	8gg\L	16dd\LL	16dd\LL	8bb-\L	16bb-\LL	8bb-\
.	.	.	.	.	16cc\	16cc\	.	16aa\	.
8G/J	8G/J	8GG/J	16dd\LL	16gg\LL	16b-\	16b-\	8dd\J	16gg\	8ddd\J
.	.	.	16cc\JJ	16ff#\JJ	16a\JJ	16a\JJ	.	16ff#\JJ	.
=81	=81	=81	=81	=81	=81	=81	=81	=81	=81
8G/L	8G/L	8GG/L	8dd\L	4gg\	8g/L	8g/L	8dd\L	16gg\LL	8bb-\L
.	.	.	.	.	.	.	.	16bb-\	.
8D/	8D/	8DD/	16dd\LL	.	16b-/LL	16b-/LL	16gg\LL	16ddd\	8gg\
.	.	.	16cc\JJ	.	16a/JJ	16a/JJ	16ff#\JJ	16ccc\JJ	.
8D/	8D/	8DD/	8b-\L	8r	8g\L	8g\L	8gg\L	16bb-\LL	8bb-\
.	.	.	.	.	.	.	.	16ccc\	.
8BB-/J	8BB-/J	8BBB-/J	16b-\LL	16gg\LL	16dd\LL	16dd\LL	8dd\J	16bb-\	8ddd\J
.	.	.	16a\JJ	16ff#\JJ	16cc\JJ	16cc\JJ	.	16aa\JJ	.
8BB-/L	8BB-/L	8BBB-/L	4g\	8gg\L	8b-\L	8b-\L	8dd\L	16gg\LL	8ggg\L
.	.	.	.	.	.	.	.	16aa\	.
8GG/	8GG/	8GGG/	.	16gg\LL	8gg\J	8gg\J	16bb-\LL	16bb-\	8ddd\
.	.	.	.	16ff#\JJ	.	.	16aa\JJ	16ccc\JJ	.
8GG/	8GG/	8GGG/	8r	8gg\L	16dd\LL	16dd\LL	8bb-\	16ddd\LL	8bb-\
.	.	.	.	.	16ee\	16ee\	.	16gg\	.
8G/J	8G/J	8GG/J	8b-\	8dd\J	16ff#\	16ff#\	8r	16ff#\	8gg\J
.	.	.	.	.	16gg\JJ	16gg\JJ	.	16gg\JJ	.
=82	=82	=82	=82	=82	=82	=82	=82	=82	=82
8D/L	8D/L	8DD/L	8a\	8ff#\	16aa\LL	16aa\LL	8r	16aa\LL	1r
.	.	.	.	.	16bb-\	16bb-\	.	16bb-\	.
8FF#/	8FF#/	8FFF#/	4d\	4aa\	16ccc\	16ccc\	16dd\LL	16ccc\	.
.	.	.	.	.	16aa\JJ	16aa\JJ	16ee-\JJ	16aa\JJ	.
8GG/	8GG/	8GGG/	.	.	16bb-\LL	16bb-\LL	8dd\L	16bb-\LL	.
.	.	.	.	.	16gg\	16gg\	.	16gg\	.
8BB-/J	8BB-/J	8BBB-/J	8b-\	8gg\	16dd\	16dd\	8gg\J	16dd\	.
.	.	.	.	.	16gg\JJ	16gg\JJ	.	16gg\JJ	.
8D/L	8D/L	8DD/L	8a\	8ff#\L	16aa\LL	16aa\LL	8ff#\L	16aa\LL	.
.	.	.	.	.	16bb-\	16bb-\	.	16bb-\	.
8FF#/	8FF#/	8FFF#/	4d\	8aa\	16ccc\	16ccc\	16dd\LL	16ccc\	.
.	.	.	.	.	16aa\JJ	16aa\JJ	16ee-\JJ	16aa\JJ	.
8GG/	8GG/	8GGG/	.	8gg\	16bb-\LL	16bb-\LL	8dd\L	16bb-\LL	.
.	.	.	.	.	16gg\JJ	16gg\JJ	.	16gg\JJ	.
8F#/J	8F#/J	8FF#/J	8d\	8aa\J	8ddd\J	8ddd\J	8aa\J	8ddd\J	.
=83	=83	=83	=83	=83	=83	=83	=83	=83	=83
8G/L	8G/L	8GG/L	8g\L	8dd\L	(16ccc\LL	(16ccc\LL	8dd\L	(16ccc\LL	2r
.	.	.	.	.	16bb-\)	16bb-\)	.	16bb-\)	.
8C/	8C/	8CC/	8e-\	8cc\	(16aa\	(16aa\	16cc\LL	(16aa\	.
.	.	.	.	.	16gg\JJ)	16gg\JJ)	16b-\JJ	16gg\JJ)	.
8D/	8D/	8DD/	8d\	8b-\	8dd\L	8dd\L	8a\L	8dd\L	.
8DD/J	8DD/J	8DDD/J	8d\J	8a\J	8ff#\J	8ff#\J	8dd\J	8ff#\J	.
4GG/	4GG/	4GGG/	4d\	4b-\	8gg\L	8gg\L	16b-/LL	4gg\	4r
.	.	.	.	.	.	.	16a/	.	.
.	.	.	.	.	16ff\LL	16ff\LL	16g/	.	.
.	.	.	.	.	16ee-\JJ	16ee-\JJ	16a/JJ	.	.
4r	4r	4r	4r	4r	16dd\LL	16dd\LL	16b-\LL	8r	8r
.	.	.	.	.	16cc\	16cc\	16cc\JJ	.	.
.	.	.	.	.	16b-\	16b-\	8dd\J	8dd\	16gg\LL
.	.	.	.	.	16a\JJ	16a\JJ	.	.	16aa\JJ
=84	=84	=84	=84	=84	=84	=84	=84	=84	=84
1r	1r	1r	8r	8r	8g/L	8g/L	8dd\L	16gg\LL	16bb-\LL
.	.	.	.	.	.	.	.	16aa\	16aa\
.	.	.	8d/L	8d/L	8d/	8d/	16b-\LL	16bb-\	16gg\
.	.	.	.	.	.	.	16cc\JJ	16aa\JJ	16aa\JJ
.	.	.	8B-/	8B-/	8B-/	8B-/	8dd\L	16gg\LL	16bb-\LL
.	.	.	.	.	.	.	.	16aa\	16aa\
.	.	.	8d/J	8d/J	8d/J	8d/J	16b-\LL	16bb-\	16gg\
.	.	.	.	.	.	.	16cc\JJ	16aa\JJ	16aa\JJ
.	.	.	8G/L	8G/L	8G/L	8G/L	8dd\L	16gg\LL	16bb-\LL
.	.	.	.	.	.	.	.	16ff#\	16ccc\
.	.	.	8d/	8d/	8d/	8d/	8gg\	16gg\	16bb-\
.	.	.	.	.	.	.	.	16aa\JJ	16aa\JJ
.	.	.	8B-/	8B-/	8B-/	8B-/	8dd\	16bb-\LL	16gg\LL
.	.	.	.	.	.	.	.	16ccc\	16aa\
.	.	.	8d/J	8d/J	8d/J	8d/J	8gg\J	16bb-\	16gg\
.	.	.	.	.	.	.	.	16aa\JJ	16aa\JJ
=85	=85	=85	=85	=85	=85	=85	=85	=85	=85
2r	2r	2r	8g\L	8g/L	8g/L	8g/L	8dd\L	16gg\LL	16bb-\LL
.	.	.	.	.	.	.	.	16aa\	16aa\
.	.	.	8d\	8d/	8d/	8d/	16b-\LL	16bb-\	16gg\
.	.	.	.	.	.	.	16cc\JJ	16aa\JJ	16aa\JJ
.	.	.	8B-\	8B-/	8B-/	8B-/	8dd\L	16gg\LL	16bb-\LL
.	.	.	.	.	.	.	.	16aa\	16aa\
.	.	.	8d\J	8d/J	8d/J	8d/J	16b-\LL	16bb-\	16gg\
.	.	.	.	.	.	.	16cc\JJ	16aa\JJ	16aa\JJ
8r	8r	8r	4G/	4G/	4G/	4G/	8dd\L	16gg\LL	16bb-\LL
.	.	.	.	.	.	.	.	16aa\	16ccc\
16G\LL	16G\LL	16GG\LL	.	.	.	.	8gg\	16gg\	16bb-\
16A\JJ	16A\JJ	16AA\JJ	.	.	.	.	.	16ff\JJ	16aa\JJ
16B-\LL	16B-\LL	16BB-\LL	4r	4r	4r	8r	8g\	16ee\LL	8gg\
16A\	16A\	16AA\	.	.	.	.	.	16ff\	.
16B-\	16B-\	16BB-\	.	.	.	8ee\	8g\J	16ee\	8r
16G\JJ	16G\JJ	16GG\JJ	.	.	.	.	.	16dd\JJ	.
=86	=86	=86	=86	=86	=86	=86	=86	=86	=86
8A\L	8A\L	8AA\L	[1e\	[1cc#\	[1gg\	16ee\LL	16g/LL	16cc#\LL	8r
.	.	.	.	.	.	16dd\	16f/	16b\	.
8E\	8E\	8EE\	.	.	.	16cc#\	16e/	16a\	(8a/L
.	.	.	.	.	.	16dd\JJ	16f/JJ	16b\JJ	.
8C#\	8C#\	8CC#\	.	.	.	16ee\LL	16g/LL	16cc#\LL	8a/
.	.	.	.	.	.	16dd\	16f/	16b\	.
8E\J	8E\J	8EE\J	.	.	.	16cc#\	16e/	16a\	8a/J)
.	.	.	.	.	.	16dd\JJ	16f/JJ	16b\JJ	.
8AA/L	8AA/L	8AAA/L	.	.	.	8ee\L	8g/L	16cc#\LL	(8a/L
.	.	.	.	.	.	.	.	16b\	.
8E/	8E/	8EE/	.	.	.	8aa\	8cc#/	16cc#\	8a/
.	.	.	.	.	.	.	.	16dd\JJ	.
8C#/	8C#/	8CC#/	.	.	.	8ee\	8g/	16ee\LL	8a/
.	.	.	.	.	.	.	.	16dd\	.
8E/J	8E/J	8EE/J	.	.	.	8aa\J	8cc#/J	16ee\	8a/J)
.	.	.	.	.	.	.	.	16ff\JJ	.
=87	=87	=87	=87	=87	=87	=87	=87	=87	=87
8A\L	8A\L	8AA\L	1e\]	1cc#\]	1gg\]	16ee\LL	8cc#/L	16gg\LL	(8a/L
.	.	.	.	.	.	16dd\	.	16ff\	.
8E\	8E\	8EE\	.	.	.	16cc#\	8a/	16ee\	8a/
.	.	.	.	.	.	16dd\JJ	.	16ff\JJ	.
8C#\	8C#\	8CC#\	.	.	.	16ee\LL	8e/	16gg\LL	8a/
.	.	.	.	.	.	16dd\	.	16ff\	.
8E\J	8E\J	8EE\J	.	.	.	16cc#\	8a/J	16ee\	8a/J
.	.	.	.	.	.	16dd\JJ	.	16ff\JJ	.
4AA/	4AA/	4AAA/	.	.	.	8ee\L	8cc#\L	16gg\LL	4a/)
.	.	.	.	.	.	.	.	16aa\	.
.	.	.	.	.	.	8aa\	8ee\	16gg\	.
.	.	.	.	.	.	.	.	16ff\JJ	.
8r	8r	8r	.	.	.	8ee\	8a\	16ee\LL	4r
.	.	.	.	.	.	.	.	16gg\	.
8A\	8A\	8AA\	.	.	.	8aa\J	8cc#\J	16ff\	.
.	.	.	.	.	.	.	.	16ee\JJ	.
=88	=88	=88	=88	=88	=88	=88	=88	=88	=88
8A\L	8A\L	8AA\L	[1a\	[1dd\	[1ff\	16ff\LL	16dd\LL	16ff\LL	4r
.	.	.	.	.	.	16ee\	16ee\	16gg\	.
16F\LL	16F\LL	16FF\LL	.	.	.	16dd\	16ff\	16aa\	.
16G\JJ	16G\JJ	16GG\JJ	.	.	.	16ee\JJ	16ee\JJ	16gg\JJ	.
8A\L	8A\L	8AA\L	.	.	.	16ff\LL	16dd\LL	16ff\LL	8r
.	.	.	.	.	.	16ee\	16ee\	16gg\	.
16F\LL	16F\LL	16FF\LL	.	.	.	16dd\	16ff\	16aa\	8aa\
16G\JJ	16G\JJ	16GG\JJ	.	.	.	16ee\JJ	16ee\JJ	16gg\JJ	.
8A\L	8A\L	8AA\L	.	.	.	16ff\LL	16dd\LL	16ff\LL	8aa\L
.	.	.	.	.	.	16gg\	16ee\	16ee\	.
8d\	8d\	8D\	.	.	.	16aa\	16ff\	16dd\	16ff\LL
.	.	.	.	.	.	16gg\JJ	16ee\JJ	16ee\JJ	16gg\JJ
8A\	8A\	8AA\	.	.	.	16ff\LL	16dd\LL	16ff\LL	8aa\L
.	.	.	.	.	.	16gg\	16ee\	16ee\	.
8d\J	8d\J	8D\J	.	.	.	16aa\	16ff\	16dd\	16ff\LL
.	.	.	.	.	.	16gg\JJ	16ee\JJ	16ee\JJ	16gg\JJ
=89	=89	=89	=89	=89	=89	=89	=89	=89	=89
8A\L	8A\L	8AA\L	1a\]	1dd\_	1ff\_	16ff\LL	16dd\LL	16ff\LL	8aa\L
.	.	.	.	.	.	16ee\	16ee\	16gg\	.
16F\LL	16F\LL	16FF\LL	.	.	.	16dd\	16ff\	16aa\	8ddd\
16G\JJ	16G\JJ	16GG\JJ	.	.	.	16ee\JJ	16ee\JJ	16gg\JJ	.
8A\L	8A\L	8AA\L	.	.	.	16ff\LL	16dd\LL	16ff\LL	8aa\
.	.	.	.	.	.	16ee\	16ee\	16gg\	.
16F\LL	16F\LL	16FF\LL	.	.	.	16dd\	16ff\	16aa\	8ddd\J
16G\JJ	16G\JJ	16GG\JJ	.	.	.	16ee\JJ	16ee\JJ	16gg\JJ	.
8A\L	8A\L	8AA\L	.	.	.	16ff\LL	16dd\LL	16ff\LL	8aa\L
.	.	.	.	.	.	16gg\	16ee\	16ee\	.
8d\	8d\	8D\	.	.	.	16aa\	16ff\	16dd\	16ff\LL
.	.	.	.	.	.	16gg\JJ	16ee\JJ	16ee\JJ	16gg\JJ
8D\	8D\	8DD\	.	.	.	16ff\LL	8dd\	8ff\J	8aa\L
.	.	.	.	.	.	16ee\	.	.	.
8F\J	8F\J	8FF\J	.	.	.	16dd\	8r	8aa\	8ddd\J
.	.	.	.	.	.	16cc\JJ	.	.	.
=90	=90	=90	=90	=90	=90	=90	=90	=90	=90
8G\L	8G\L	8GG\L	1b-\	2dd\]	2ff\]	16b-/LL	4r	16ddd\LL	8bb-\L
.	.	.	.	.	.	16a/	.	16ccc\	.
8B-\	8B-\	8BB-\	.	.	.	16g/	.	16bb-\	8ddd\
.	.	.	.	.	.	16a/JJ	.	16ccc\JJ	.
8G\	8G\	8GG\	.	.	.	16b-/LL	8r	16ddd\LL	8bb-\
.	.	.	.	.	.	16a/	.	16ccc\	.
8B-\J	8B-\J	8BB-\J	.	.	.	16g/	8dd\	16bb-\	8ddd\J
.	.	.	.	.	.	16a/JJ	.	16aa\JJ	.
8E\L	8E\L	8CC\L	.	[2cc\	[2ee\	16b-\LL	16gg\LL	8gg\	8ccc\L
.	.	.	.	.	.	16gg\	16ff\	.	.
8c\	8c\	8EE\	.	.	.	16b-\	16ee\	8r	8gg\
.	.	.	.	.	.	16gg\JJ	16ff\JJ	.	.
8C\	8C\	8CC\	.	.	.	16b-\LL	16gg\LL	8r	8ccc\
.	.	.	.	.	.	16gg\	16ff\	.	.
8E\J	8E\J	8EE\J	.	.	.	16b-\	16ee\	8gg\	8gg\J
.	.	.	.	.	.	16gg\JJ	16dd\JJ	.	.
=91	=91	=91	=91	=91	=91	=91	=91	=91	=91
8F\L	8F\L	8FF\L	1a\	2cc\]	2ee\]	16a/LL	8cc\	16ccc\LL	8aa\L
.	.	.	.	.	.	16g/	.	16bb-\	.
8A\	8A\	8AA\	.	.	.	16f/	8r	16aa\	8ccc\
.	.	.	.	.	.	16g/JJ	.	16bb-\JJ	.
8F\	8F\	8FF\	.	.	.	16a/LL	8r	16ccc\LL	8aa\
.	.	.	.	.	.	16g/	.	16bb-\	.
8A\J	8A\J	8AA\J	.	.	.	16f/	8cc\	16aa\	8ccc\J
.	.	.	.	.	.	16g/JJ	.	16gg\JJ	.
8D\L	8D\L	8BBB/L	.	[2b\	[2dd\	16a\LL	16ff\LL	8ff\	16bbn\LL
.	.	.	.	.	.	16ff\	16ee\	.	16ccc\
8B\	8B\	8DD/	.	.	.	16a\	16dd\	8r	16bbn\
.	.	.	.	.	.	16ff\JJ	16ee\JJ	.	16ccc\JJ
8BB\	8BB\	8BBB/	.	.	.	16a\LL	16ff\LL	8r	16ddd\LL
.	.	.	.	.	.	16ff\	16ee\	.	16ccc\
8D\J	8D\J	8DD/J	.	.	.	16a\	16dd\	8ff\	16bbn\
.	.	.	.	.	.	16ff\JJ	16cc\JJ	.	16aa\JJ
=92	=92	=92	=92	=92	=92	=92	=92	=92	=92
8E/L	8E/L	8EE/L	2g#\	2b\]	2dd\]	16r 16g#\LL	(8b/L	(8ee\L	(8ddd\L
.	.	.	.	.	.	16a/LL 16r	.	.	.
8EE/J	8EE/J	8EEE/J	.	.	.	16r 16b\JJ	8b/	8ee\	8ddd\
.	.	.	.	.	.	16a/JJ 16r	.	.	.
8r	8r	8r	.	.	.	16r 16g#\LL	8b/)	8ee\	8ddd\)
.	.	.	.	.	.	16a/LL 16r	.	.	.
8E\	8E\	8EE\	.	.	.	16r 16b\JJ	8g#/J	8ee\J)	8bbn\J
.	.	.	.	.	.	16a/JJ 16r	.	.	.
8E/L	8E/L	8EE/L	[2e\	2a/	2cc\	16r 16a\LL	(8a/L	(8ee\L	(8ccc\L
.	.	.	.	.	.	16a/LL 16r	.	.	.
8EE/J	8EE/J	8EEE/J	.	.	.	16r 16cc\JJ	8a/	8ee\	8ccc\
.	.	.	.	.	.	16a/JJ 16r	.	.	.
8r	8r	8r	.	.	.	16r 16a\LL	8a/)	8ee\	8ccc\)
.	.	.	.	.	.	16a/LL 16r	.	.	.
8E\	8E\	8EE\	.	.	.	16r 16cc\JJ	8f#/J	8ee\J)	8aa\J
.	.	.	.	.	.	16a/JJ 16r	.	.	.
=93	=93	=93	=93	=93	=93	=93	=93	=93	=93
8E/L	8E/L	8EE/L	2e\]	2g#/	2b\	16r 16b\LL	(8g#/L	8dd\L	16bbn\LL
.	.	.	.	.	.	16a/LL 16r	.	.	16aa\
8EE/J	8EE/J	8EEE/J	.	.	.	16r 16dd\JJ	8g#/	(8b\	16bbn\
.	.	.	.	.	.	16a/JJ 16r	.	.	16ccc\JJ
8r	8r	8r	.	.	.	16r 16b\LL	8g#/	8b\	16ddd\LL
.	.	.	.	.	.	16a/LL 16r	.	.	16ccc\
8E\	8E\	8EE\	.	.	.	16r 16dd\JJ	8g#/J)	8b\J)	16bbn\
.	.	.	.	.	.	16a/JJ 16r	.	.	16ddd\JJ
4AA/	4AA/	4AAA/	4e\	4a/	4a/	16r 16cc\LL	4e/	4cc\	16ccc\LL
.	.	.	.	.	.	16a/LL 16r	.	.	16ddd\
.	.	.	.	.	.	16r 16b\JJ	.	.	16eee\
.	.	.	.	.	.	16a/JJ 16r	.	.	16ccc\JJ
8r	8r	8r	8r	8r	8r	8a\	4r	8r	8aa\
8E\	8E\	8EE\	16A/LL	16A/LL	16A/LL	8e/	.	8cc\	8r
.	.	.	16G#/JJ	16G#/JJ	16G#/JJ	.	.	.	.
=94	=94	=94	=94	=94	=94	=94	=94	=94	=94
16A\LL	16A\LL	16AA\LL	8A/L	8A/L	8A/L	8e/L	4r	8cc\L	4r
16B\	16B\	16BB\	.	.	.	.	.	.	.
16c\	16c\	16C\	16A/LL	16A/LL	16A/LL	16c/LL	.	16a\LL	.
16B\JJ	16B\JJ	16BB\JJ	16G#/JJ	16G#/JJ	16G#/JJ	16d/JJ	.	16b\JJ	.
16A\LL	16A\LL	16AA\LL	8A/L	8A/L	8A/L	8e/L	8r	8cc\L	8r
16B\	16B\	16BB\	.	.	.	.	.	.	.
16c\	16c\	16C\	16A/LL	16A/LL	16A/LL	16c/LL	8ee\	16a\LL	8ccc\
16B\JJ	16B\JJ	16BB\JJ	16G#/JJ	16G#/JJ	16G#/JJ	16d/JJ	.	16b\JJ	.
16A\LL	16A\LL	16AA\LL	8A/L	8A/L	8A/L	8e/L	8ee\L	8cc\L	8ccc\L
16B\	16B\	16BB\	.	.	.	.	.	.	.
16c\	16c\	16C\	16A/LL	16A/LL	16A/LL	8a/	16cc\LL	8ee\	16aa\LL
16B\JJ	16B\JJ	16BB\JJ	16G#/JJ	16G#/JJ	16G#/JJ	.	16dd\JJ	.	16bbn\JJ
16A\LL	16A\LL	16AA\LL	8A/L	8A/L	8A/L	8e/	8ee\L	8cc\	8ccc\L
16B\	16B\	16BB\	.	.	.	.	.	.	.
16c\	16c\	16C\	16A/LL	16A/LL	16A/LL	8a/J	16cc\LL	8ee\J	16aa\LL
16B\JJ	16B\JJ	16BB\JJ	16G#/JJ	16G#/JJ	16G#/JJ	.	16dd\JJ	.	16bbn\JJ
=95	=95	=95	=95	=95	=95	=95	=95	=95	=95
16A\LL	16A\LL	16AA\LL	8A/L	8A/L	8A/L	8e/L	8ee\L	8cc\L	8ccc\L
16B\	16B\	16BB\	.	.	.	.	.	.	.
16c\	16c\	16C\	16A/LL	16A/LL	16A/LL	16c/LL	8aa\	16a\LL	8eee\
16B\JJ	16B\JJ	16BB\JJ	16G#/JJ	16G#/JJ	16G#/JJ	16d/JJ	.	16b\JJ	.
16A\LL	16A\LL	16AA\LL	8A/L	8A/L	8A/L	8e/L	8ee\	8cc\L	8ccc\
16B\	16B\	16BB\	.	.	.	.	.	.	.
16c\	16c\	16C\	16A/LL	16A/LL	16A/LL	16c/LL	8aa\J	16a\LL	8eee\J
16B\JJ	16B\JJ	16BB\JJ	16G#/JJ	16G#/JJ	16G#/JJ	16d/JJ	.	16b\JJ	.
16A\LL	16A\LL	16AA\LL	4A/	4A/	4A/	8e/L	8ee\L	8cc\L	8ccc\L
16B\	16B\	16BB\	.	.	.	.	.	.	.
16c\	16c\	16C\	.	.	.	8a/	16cc\LL	8ee\	16aa\LL
16B\JJ	16B\JJ	16BB\JJ	.	.	.	.	16dd\JJ	.	16bbn\JJ
16A\LL	16A\LL	16AA\LL	8r	[4cc\	4r	8e/J	8ee\L	8aa\	8ccc\L
16B\	16B\	16BB\	.	.	.	.	.	.	.
16c\	16c\	16C\	8A/	.	.	8r	8a\J	8ee\J	8aa\J
16A\JJ	16A\JJ	16AA\JJ	.	.	.	.	.	.	.
=96	=96	=96	=96	=96	=96	=96	=96	=96	=96
16D\LL	16D\LL	8DD\L	16d\LL	2cc\]	1ff\	8r	16f/LL	[2ff\	8aa\L
16C\	16C\	.	16c\	.	.	.	16e/	.	.
16D\	16D\	8D\J	16d\	.	.	8a\L	16f/	.	8ccc\
16E\JJ	16E\JJ	.	16e\JJ	.	.	.	16g/JJ	.	.
16F\LL	16F\LL	8r	16f\LL	.	.	8dd\	16a/LL	.	8aa\
16E\	16E\	.	16e\	.	.	.	16g/	.	.
16F\	16F\	8D\	16f\	.	.	8a\J	16a/	.	8ccc\J
16D\JJ	16D\JJ	.	16d\JJ	.	.	.	16f/JJ	.	.
16G\LL	16G\LL	16GG\LL	8g\L	[2b\	.	[2b\	16b\LL	8ff\L]	8gg\L
16F#\	16F#\	16FF#\	.	.	.	.	16a\	.	.
16G\	16G\	16GG\	8G\J	.	.	.	16b\	8dd\	8bbn\
16A\JJ	16A\JJ	16AA\JJ	.	.	.	.	16cc\JJ	.	.
16B\LL	16B\LL	16BB\LL	8r	.	.	.	16dd\LL	8gg\	8gg\
16A\	16A\	16AA\	.	.	.	.	16cc\	.	.
16B\	16B\	16BB\	8G/	.	.	.	16dd\	8dd\J	8bbn\J
16G\JJ	16G\JJ	16GG\JJ	.	.	.	.	16b\JJ	.	.
=97	=97	=97	=97	=97	=97	=97	=97	=97	=97
16C/LL	16C/LL	8CC\L	16c\LL	2b\]	1ee\	8b/L]	16ee\LL	[2ee\	8gg\L
16BB/	16BB/	.	16B\	.	.	.	16dd\	.	.
16C/	16C/	8C\J	16c\	.	.	8g/	16ee\	.	8bbn\
16D/JJ	16D/JJ	.	16d\JJ	.	.	.	16ff\JJ	.	.
16E\LL	16E\LL	8r	16e\LL	.	.	8cc/	16gg\LL	.	8gg\
16D\	16D\	.	16d\	.	.	.	16ff\	.	.
16E\	16E\	8C\	16e\	.	.	8g/J	16gg\	.	8bbn\J
16C\JJ	16C\JJ	.	16c\JJ	.	.	.	16ee\JJ	.	.
16F\LL	16F\LL	16FF\LL	8f\L	[2a/	.	[2a/	16aa\LL	8ee\L]	8ff\L
16E\	16E\	16EE\	.	.	.	.	16gg#\	.	.
16F\	16F\	16FF\	8F\J	.	.	.	16aa\	8cc\	8aa\
16G\JJ	16G\JJ	16GG\JJ	.	.	.	.	16bb\JJ	.	.
16A\LL	16A\LL	16AA\LL	8r	.	.	.	16ccc\LL	8ff\	8ff\
16G\	16G\	16GG\	.	.	.	.	16bb\	.	.
16A\	16A\	16AA\	8F/	.	.	.	16ccc\	8cc\J	8aa\J
16F\JJ	16F\JJ	16FF\JJ	.	.	.	.	16aa\JJ	.	.
=98	=98	=98	=98	=98	=98	=98	=98	=98	=98
16BB/LL	16BB/LL	8BBB\L	16B/LL	2a/]	1dd\	8a/L]	8.ddd\L	[2dd\	8ff\L
16AA/	16AA/	.	16A/	.	.	.	.	.	.
16BB/	16BB/	8BB\J	16B/	.	.	8f#/	.	.	8aa\
16C/JJ	16C/JJ	.	16c/JJ	.	.	.	16ccc\Jk	.	.
16D/LL	16D/LL	8r	16d/LL	.	.	8b/	16bb\LL	.	8ff\
16C/	16C/	.	16c/	.	.	.	16aa\	.	.
16D/	16D/	8BB\	16d/	.	.	8f#/J	16gg#\	.	8ddd\J
16BB/JJ	16BB/JJ	.	16B/JJ	.	.	.	16ff#\JJ	.	.
16E\LL	16E\LL	16EE\LL	8e/L	2g#/	.	4.g#/	8.ee\L	8dd\L]	8bbn\
16D\	16D\	16DD\	.	.	.	.	.	.	.
16E\	16E\	16EE\	8E/J	.	.	.	.	8b\	8r
16F\JJ	16F\JJ	16FF\JJ	.	.	.	.	16dd\Jk	.	.
16E/LL	16E/LL	16EE\LL	8r	.	.	.	16cc\LL	8ee\	8r
16D/	16D/	16DD\	.	.	.	.	16b\	.	.
16C/	16C/	16CC\	8e\	.	.	16a/LL	16a\	8dd\J	8aa\
16BB/JJ	16BB/JJ	16BBB\JJ	.	.	.	16b/JJ	16g#\JJ	.	.
=99	=99	=99	=99	=99	=99	=99	=99	=99	=99
8AA/L	8AA/L	8AAA/L	8e\L	8a/L	8cc/L	8cc\L	4a/	8cc\L	8aa\
16C/LL	16C/LL	16CC/LL	8e\	8e/	8e/	16aa\LL	.	16ee\LL	8r
16BB/JJ	16BB/JJ	16BBB/JJ	.	.	.	16gg#\JJ	.	16dd\JJ	.
8AA/L	8AA/L	8AAA/L	8e\	8e/	8e/	8aa\L	8r	8ee\L	4r
16E/LL	16E/LL	16EE/LL	8c\J	8c/J	8c/J	8ee\J	16cc\LL	16aa\LL	.
16D/JJ	16D/JJ	16DD/JJ	.	.	.	.	16b\JJ	16gg#\JJ	.
8C\L	8C\L	8CC\L	8c\L	8c/L	8c/L	8ee\L	8a\L	8aa\L	4r
8A\J	8A\J	8AA\J	8A\	8A/	8A/	16ccc\LL	16aa\LL	16ee\LL	.
.	.	.	.	.	.	16bb\JJ	16gg#\JJ	16dd\JJ	.
16E\LL	16E\LL	16EE\LL	8A\	8A/	8A/	8ccc\L	8aa\L	8ee\L	8r
16D\	16D\	16DD\	.	.	.	.	.	.	.
16C\	16C\	16CC\	8a\J	8a/J	8a/J	8ee\J	16ee\LL	16a\LL	8aa\
16BB\JJ	16BB\JJ	16BBB\JJ	.	.	.	.	16dd\JJ	16b\JJ	.
=100	=100	=100	=100	=100	=100	=100	=100	=100	=100
8AA/L	8AA/L	8AAA/L	8a\L	8a/L	8a/L	8ee\L	8ee\L	8cc\L	8aa\
16C/LL	16C/LL	16CC/LL	8e\	8e/	8e/	16aa\LL	16ee\LL	8a\J	8r
16BB/JJ	16BB/JJ	16BBB/JJ	.	.	.	16gg#\JJ	16dd\JJ	.	.
8AA/L	8AA/L	8AAA/L	8e\	8e/	8e/	8aa\L	8ee\L	8a\L	4r
16E/LL	16E/LL	16EE/LL	8c\J	8c/J	8c/J	8ee\J	16cc\LL	16aa\LL	.
16D/JJ	16D/JJ	16DD/JJ	.	.	.	.	16b\JJ	16gg#\JJ	.
8C\L	8C\L	8CC\L	8c/L	8c/L	8c/L	8ee\L	8a\L	8aa\L	2r
8A\J	8A\J	8AA\J	8A/	8A/	8A/	16ccc\LL	16aa\LL	16ee\LL	.
.	.	.	.	.	.	16bb\JJ	16gg#\JJ	16dd\JJ	.
16E\LL	16E\LL	16EE\LL	8A/	8A/	8A/	8ccc\L	8aa\L	8ee\	.
16D\	16D\	16DD\	.	.	.	.	.	.	.
16C\	16C\	16CC\	8e/J	8a/J	8ee/J	8ee\J	8ee\J	8r	.
16D\JJ	16D\JJ	16DD\JJ	.	.	.	.	.	.	.
=101	=101	=101	=101	=101	=101	=101	=101	=101	=101
8E/L	8E/L	8EE/L	8e\	8g#/	16b\LL	16b\LL	16b\LL	8r	1r
.	.	.	.	.	16cc\	16cc\	16cc\	.	.
8GG#/	8GG#/	8GGG#/	4E/	4b/	16dd\	16dd\	16dd\	16eee\LL	.
.	.	.	.	.	16b\JJ	16b\JJ	16b\JJ	16fff\JJ	.
8AA/	8AA/	8AAA/	.	.	16cc/LL	16cc/LL	16cc/LL	8eee\L	.
.	.	.	.	.	16a/	16a/	16a/	.	.
8C/J	8C/J	8CC/J	8e\	8a/	16e/	16e/	16e/	8aa\J	.
.	.	.	.	.	16a/JJ	16a/JJ	16a/JJ	.	.
8E/L	8E/L	8EE/L	8e\	8g#/L	16b\LL	16b\LL	16b\LL	8gg#\L	.
.	.	.	.	.	16cc\	16cc\	16cc\	.	.
8GG#/	8GG#/	8GGG#/	4E/	8b/	16dd\	16dd\	16dd\	16eee\LL	.
.	.	.	.	.	16b\JJ	16b\JJ	16b\JJ	16fff\JJ	.
8AA/	8AA/	8AAA/	.	8a/	16cc\LL	16cc\LL	16cc\LL	8eee\L	.
.	.	.	.	.	16a\JJ	16a\JJ	16a\JJ	.	.
8C/J	8C/J	8CC/J	8e\	8a/J	8ee\J	8ee\J	8ee\J	16aa\LL	.
.	.	.	.	.	.	.	.	16gg#\JJ	.
=102	=102	=102	=102	=102	=102	=102	=102	=102	=102
8F/L	8F/L	8FF/L	8A\L	8a/L	(16dd\LL	(16dd\LL	(16dd\LL	8.aa\L	2r
.	.	.	.	.	16cc\)	16cc\)	16cc\	.	.
8D/	8D/	8DD/	8d\	8f/	(16b\	(16b\	16b\	.	.
.	.	.	.	.	16a\JJ)	16a\JJ)	16a\JJ)	16bb\Jk	.
8E/	8E/	8EE/	8c\	8e/	8e/L	8e/L	8e/L	8.bbt\L	.
8EE/J	8EE/J	8EEE/J	8B\J	8e/J	8g#t/J	8g#t/J	8g#t/J	.	.
.	.	.	.	.	.	.	.	16aa\Jk	.
4AA/	4AA/	4AAA/	4c\	4e/	4a/	4a/	4a/	4aa\	4r
8r	8r	8r	8r	8r	8r	8r	8r	8r	8r
8F\	8F\	8FF\	8f\	8f/	8f/	8f/	8ff\	8fff\	8ff\
=103	=103	=103	=103	=103	=103	=103	=103	=103	=103
8C/L	8C/L	8CC/L	8c/L	8c/L	8c/L	8c/L	8cc\L	8ccc\L	8cc/L
16AA/LL	16AA/LL	16AAA/LL	16A/LL	16A/LL	16A/LL	16A/LL	16a\LL	16aa\LL	16a/LL
16BB-/JJ	16BB-/JJ	16BBB-/JJ	16B-/JJ	16B-/JJ	16B-/JJ	16B-/JJ	16b-\JJ	16bb-\JJ	16f/JJ
8C/L	8C/L	8CC/L	8c/L	8c/L	8c/L	8c/L	8cc\L	8ccc\L	8cc/L
16AA/LL	16AA/LL	16AAA/LL	16A/LL	16A/LL	16A/LL	16A/LL	16a\LL	16aa\LL	16a/LL
16BB-/JJ	16BB-/JJ	16BBB-/JJ	16B-/JJ	16B-/JJ	16B-/JJ	16B-/JJ	16b-\JJ	16bb-\JJ	16f/JJ
8C\L	8C\L	8CC\L	8c\L	8c/L	8c/L	8c/L	8cc\L	8ccc\L	8cc/L
8F\	8F\	8FF\	8f\	8f/	8f/	8f/	8ff\	8fff\	8ff/
8C\	8C\	8CC\	8c\	8c/	8c/	8c/	8cc\	8ccc\	8cc/
8F\J	8F\J	8FF\J	8f\J	8f/J	8f/J	8f/J	8ff\J	8fff\J	8ff/J
=104	=104	=104	=104	=104	=104	=104	=104	=104	=104
8C/L	8C/L	8CC/L	8c/L	8c/L	8c/L	8c/L	8cc\L	8ccc\L	8cc/L
16AA/LL	16AA/LL	16AAA/LL	16A/LL	16A/LL	16A/LL	16A/LL	16a\LL	16aa\LL	16a/LL
16BB-/JJ	16BB-/JJ	16BBB-/JJ	16B-/JJ	16B-/JJ	16B-/JJ	16B-/JJ	16b-\JJ	16bb-\JJ	16f/JJ
8C/L	8C/L	8CC/L	8c/L	8c/L	8c/L	8c/L	8cc\L	8ccc\L	8cc/L
16AA/LL	16AA/LL	16AAA/LL	16A/LL	16A/LL	16A/LL	16A/LL	16a\LL	16aa\LL	16a/LL
16BB-/JJ	16BB-/JJ	16BBB-/JJ	16B-/JJ	16B-/JJ	16B-/JJ	16B-/JJ	16b-\JJ	16bb-\JJ	16f/JJ
8C\L	8C\L	8CC\L	8c\L	8c/L	8c/L	8c/L	8cc\L	8ccc\L	8cc/L
8F\	8F\	8FF\	8f\	8f/	8f/	8f/	8ff\	8fff\	8ff/
8C\J	8C\J	8CC\J	8c\J	8c/J	8c/J	8c/J	8cc\J	8ccc\J	8cc/J
8A\	8A\	8AA\	8a\	8cc\	8ff\	8ff\	8ff\	8ff\	16cc/LL
.	.	.	.	.	.	.	.	.	16cc/JJ
=105	=105	=105	=105	=105	=105	=105	=105	=105	=105
8E\L	8E\L	8EE\L	8g\L	16cc\LL	16gg\LL	16gg\LL	16gg\LL	16gg\LL	4cc/
.	.	.	.	16dd\	16ff\	16ff\	16ff\	16ff\	.
8G\	8G\	8GG\	8b-\	16ee\	16gg\	16gg\	16gg\	16gg\	.
.	.	.	.	16ff\JJ	16aa\JJ	16aa\JJ	16aa\JJ	16aa\JJ	.
8C\	8C\	8CC\	8e\	8gg\L	16bb-\LL	16bb-\LL	16bb-\LL	16bb-\LL	8r
.	.	.	.	.	16aa\	16aa\	16aa\	16aa\	.
8F\J	8F\J	8FF\J	8cc\J	8ff\J	16bb-\	16bb-\	16bb-\	16bb-\	16cc/LL
.	.	.	.	.	16aa\JJ	16aa\JJ	16aa\JJ	16aa\JJ	16cc/JJ
8E\L	8E\L	8EE\L	4g\	4cc\	16gg\LL	16gg\LL	16gg\LL	16gg\LL	4cc/
.	.	.	.	.	16ff\	16ff\	16ff\	16ff\	.
8G\	8G\	8GG\	.	.	16ee\	16ee\	16ee\	16ee\	.
.	.	.	.	.	16dd\JJ	16dd\JJ	16dd\JJ	16dd\JJ	.
8C\	8C\	8CC\	8r	8r	16cc\LL	16cc\LL	16cc\LL	16cc\LL	8r
.	.	.	.	.	16ff\	16ff\	16ff\	16ff\	.
8A\J	8A\J	8AA\J	8a\	8cc\	16ee\	16ee\	16ee\	16ee\	16cc/LL
.	.	.	.	.	16ff\JJ	16ff\JJ	16ff\JJ	16ff\JJ	16cc/JJ
=106	=106	=106	=106	=106	=106	=106	=106	=106	=106
8E\L	8E\L	8EE\L	8g\L	16cc\LL	16gg\LL	16gg\LL	16gg\LL	16gg\LL	4cc/
.	.	.	.	16dd\	16ff\	16ff\	16ff\	16ff\	.
8G\	8G\	8GG\	8b-\	16ee\	16gg\	16gg\	16gg\	16gg\	.
.	.	.	.	16ff\JJ	16aa\JJ	16aa\JJ	16aa\JJ	16aa\JJ	.
8C\	8C\	8CC\	8e\	8gg\L	16bb-\LL	16bb-\LL	16bb-\LL	16bb-\LL	8r
.	.	.	.	.	16aa\	16aa\	16aa\	16aa\	.
8F\J	8F\J	8FF\J	8cc\J	8ff\J	16bb-\	16bb-\	16bb-\	16bb-\	16cc/LL
.	.	.	.	.	16aa\JJ	16aa\JJ	16aa\JJ	16aa\JJ	16cc/JJ
16E\LL	16E\LL	16EE\LL	16g\LL	16cc\LL	16gg\LL	16gg\LL	16gg\LL	16gg\LL	4cc/
16F\	16F\	16FF\	16f\	16ff\	16ff\	16ff\	16ff\	16ff\	.
16E\	16E\	16EE\	16e\	16ee\	16ee\	16ee\	16ee\	16ee\	.
16D\JJ	16D\JJ	16DD\JJ	16d\JJ	16dd\JJ	16dd\JJ	16dd\JJ	16dd\JJ	16dd\JJ	.
16C/LL	16C/LL	16CC/LL	16c/LL	16cc\LL	16cc\LL	8cc\L	16cc\LL	8cc\L	4r
16BB-/	16BB-/	16BBB-/	16B-/	16b-\	16b-\	.	16b-\	.	.
16AA/	16AA/	16AAA/	16A/	16a\	16a\	8ff\J	16a\	8cc\J	.
16GG/JJ	16GG/JJ	16GGG/JJ	16G/JJ	16g\JJ	16g\JJ	.	16g\JJ	.	.
=107	=107	=107	=107	=107	=107	=107	=107	=107	=107
(8AA-/L	(8AA-/L	8AAA-/	8d\	8f/	8f/	8b-\L	8f/	16dd\LL	(8ff\L
.	.	.	.	.	.	.	.	16ee-\	.
8AA-/	8AA-/	8r	8r	8r	4ff\	16dd\LL	8b-\L	16ff\	8ff\
.	.	.	.	.	.	16cc\JJ	.	16ee-\JJ	.
8AA-/	8AA-/	8AAA-/	8f\	8b-\	.	8b-\L	8dd\	16dd\LL	8ff\
.	.	.	.	.	.	.	.	16ee-\	.
8AA-/J)	8AA-/J)	8r	8r	8r	4dd\	16ff\LL	8ff\J	16dd\	8ff\J)
.	.	.	.	.	.	16ee-\JJ	.	16cc\JJ	.
(8AA-/L	(8AA-/L	8AAA-/	8b-\	8dd\	.	8dd\L	8bb-\L	16b-/LL	(8ff\L
.	.	.	.	.	.	.	.	16f/	.
8AA-/	8AA-/	8r	8r	8r	4b-\	8bb-\J	8ff\	16g/	8ff\
.	.	.	.	.	.	.	.	16a-/JJ	.
8AA-/	8AA-/	8AAA-/	8dd\	8ff\	.	16ff\LL	8dd\	16b-\LL	8ff\
.	.	.	.	.	.	16ee-\	.	16cc\	.
8AA-/J)	8AA-/J)	8r	8r	8r	[8ff\	16dd\	8b-\J	16dd\	8ff\J)
.	.	.	.	.	.	16cc\JJ	.	16ee-\JJ	.
=108	=108	=108	=108	=108	=108	=108	=108	=108	=108
*	*	*	*	*	*	*	*	*	*
*	*	*	*	*	*	*^	*	*	*
(8GG/L	(8GG/L	8GGG/	8b\	8g/	8ff\]	8f\L	(8b/L	8d/L	16ff\LL	(8gg\L
.	.	.	.	.	.	.	.	.	16gg\	.
8GG/	8GG/	8r	8r	8r	4dd\	8f\	8b/	16f/LL	16aa-\	8gg\
.	.	.	.	.	.	.	.	16e-/JJ	16gg\JJ	.
8GG/	8GG/	8GGG/	8g\	8b\	.	8f\	8b/	8d/L	16ff\LL	8gg\
.	.	.	.	.	.	.	.	.	16gg\	.
8GG/J)	8GG/J)	8r	8r	8r	4b\	8f\J	8b/J)	16a-/LL	16ff\	8gg\J)
.	.	.	.	.	.	.	.	16g/JJ	16ee-\JJ	.
(8GG/L	(8GG/L	8GGG/	8b\	8dd\	.	8d\L	(8b/L	8f/L	16dd\LL	(8gg\L
.	.	.	.	.	.	.	.	.	16cc\	.
8GG/	8GG/	8r	8r	8r	4g/	8d\	8b/	8dd/J	16b\	8gg\
.	.	.	.	.	.	.	.	.	16cc\JJ	.
8GG/	8GG/	8GGG/	8dd\	8ff\	.	8d\	8b/	16g/LL	16dd\LL	8gg\
.	.	.	.	.	.	.	.	16f/	16ee-\	.
8GG/J)	8GG/J)	8r	8r	8r	[8gg\	8d\J	8b/J)	16e-/	16ff\	8gg\J)
.	.	.	.	.	.	.	.	16d/JJ	16gg\JJ	.
*	*	*	*	*	*	*	*	*	*	*
*	*	*	*	*	*	*	*	*	*	*
*	*	*	*	*	*	*v	*v	*	*	*
=109	=109	=109	=109	=109	=109	=109	=109	=109	=109
(8BB-/L	(8BB-/L	8BBB-/	8e\	8g/	8gg\]	16cc\LL	8e/L	8cc\L	8gg\L
.	.	.	.	.	.	16ee\	.	.	.
8BB-/	8BB-/	8r	8r	8r	4ee\	16gg\	(8cc/	16ee\LL	8cc\
.	.	.	.	.	.	16ff\JJ	.	16dd\JJ	.
8BB-/	8BB-/	8BBB-/	8g\	8cc\	.	16ee\LL	8cc/	8cc\L	8gg\
.	.	.	.	.	.	16ff\	.	.	.
8BB-/J)	8BB-/J)	8r	8r	8r	4cc\	16ee\	8cc/J)	16gg\LL	8gg\J
.	.	.	.	.	.	16dd\JJ	.	16ff\JJ	.
(8BB-/L	(8BB-/L	8BBB-/	8cc\	8ee\	.	16cc\LL	(8g/L	8ee\L	8ccc\L
.	.	.	.	.	.	16g\	.	.	.
8BB-/	8BB-/	8r	8r	8r	4g/	16a\	8g/	8ccc\J	8gg\
.	.	.	.	.	.	16b-\JJ	.	.	.
8BB-/	8BB-/	8BBB-/	8ee\	8gg\	.	16cc\LL	8g/	16gg\LL	8gg\
.	.	.	.	.	.	16b-\	.	16ff\	.
8BB-/J)	8BB-/J)	8r	8r	8r	[8gg\	16cc\	8g/J)	16ee\	8cc\J
.	.	.	.	.	.	16dd\JJ	.	16dd\JJ	.
=110	=110	=110	=110	=110	=110	=110	=110	=110	=110
(8AA/L	(8AA/L	8AAA/	8cc#\	8a/	8gg\]	8ee\L	16g/LL	(8cc#\L	(8a/L
.	.	.	.	.	.	.	16a/	.	.
8AA/	8AA/	8r	8r	8r	4ee\	16gg\LL	16b-/	8cc#\	8a/
.	.	.	.	.	.	16ff\JJ	16a/JJ	.	.
8AA/	8AA/	8AAA/	8A/	8cc#\	.	8ee\L	16g/LL	8cc#\	8a/
.	.	.	.	.	.	.	16a/	.	.
8AA/J)	8AA/J)	8r	8r	8r	4cc#\	16bb-\LL	16g/	8cc#\J)	8a/J)
.	.	.	.	.	.	16aa\JJ	16f/JJ	.	.
(8AA/L	(8AA/L	8AAA/	8c#\	8ee\	.	8gg\L	16e/LL	(8cc#\L	(8a/L
.	.	.	.	.	.	.	16f/	.	.
8AA/	8AA/	8r	8r	8r	4a/	8eee\J	16g/	8cc#\	8a/
.	.	.	.	.	.	.	16f/JJ	.	.
8AA/	8AA/	8AAA/	8e\	8gg\	.	16aa\LL	16e/LL	8cc#\	8a/
.	.	.	.	.	.	16gg\	16f/	.	.
8AA/J)	8AA/J)	8r	8r	8r	[8aa\	16ff\	16g/	8cc#\J)	8a/J)
.	.	.	.	.	.	16ee\JJ	16a/JJ	.	.
=111	=111	=111	=111	=111	=111	=111	=111	=111	=111
(8C/L	(8C/L	8CC/	8f#\	8a/	8aa\]	8ff#\L	8d/L	16dd\LL	(8a/L
.	.	.	.	.	.	.	.	16ff#\	.
8C/	8C/	8r	8r	8r	4ff#\	8dd\	16f#/LL	16aa\	8a/
.	.	.	.	.	.	.	16e/JJ	16gg\JJ	.
8C/	8C/	8CC/	8a\	8dd\	.	8ff#\	8d/L	16ff#\LL	8a/
.	.	.	.	.	.	.	.	16gg\	.
8C/J)	8C/J)	8r	8r	8r	4dd\	8aa\J	16a/LL	16ff#\	8a/J)
.	.	.	.	.	.	.	16g/JJ	16ee\JJ	.
(8C/L	(8C/L	8CC/	8d\	8ff#\	.	8ddd\L	8f#/L	16dd\LL	(8a/L
.	.	.	.	.	.	.	.	16a\	.
8C/	8C/	8r	8r	8r	4a/	8aa\	8dd/J	16b-\	8a/
.	.	.	.	.	.	.	.	16cc\JJ	.
8C/	8C/	8CC/	8f#\	8aa\	.	8ff#\	16a/LL	16dd\LL	8a/
.	.	.	.	.	.	.	16g/	16ee\	.
8C/J)	8C/J)	8r	8r	8r	[8dd\	8dd\J	16f#/	16ff#\	8a/J)
.	.	.	.	.	.	.	16e/JJ	16gg\JJ	.
=112	=112	=112	=112	=112	=112	=112	=112	=112	=112
(8BBn/L	(8BBn/L	8BBBn/	8d\	8ff\	8dd\]	16ff\LL	8d/	8aa-\L	(8f/L
.	.	.	.	.	.	16gg\	.	.	.
8BB/	8BB/	8r	8r	8r	4a-/	16aa-\	(8dd\L	16ff\LL	8f/
.	.	.	.	.	.	16gg\JJ	.	16ee-\JJ	.
8BB/	8BB/	8BBB/	8f\	8dd\	.	16ff\LL	8dd\	8dd\L	8f/
.	.	.	.	.	.	16gg\	.	.	.
8BB/J)	8BB/J)	8r	8r	8r	4f/	16ff\	8dd\J)	16aa-\LL	8f/J)
.	.	.	.	.	.	16ee-\JJ	.	16gg\JJ	.
(8BB/L	(8BB/L	8BBB/	8a-\	8b\	.	16dd\LL	(8dd\L	8ff\L	(8f/L
.	.	.	.	.	.	16ee-\	.	.	.
8BB/	8BB/	8r	8r	8r	4d/	16ff\	8dd\	16ddd\LL	8f/
.	.	.	.	.	.	16ee-\JJ	.	16ccc\JJ	.
8BB/	8BB/	8BBB/	8d\	8g/	.	16dd\LL	8dd\	16bb\LL	8f/
.	.	.	.	.	.	16cc\	.	16aa\	.
8BB/J)	8BB/J)	8r	8r	8r	8g/	16b\	8dd\J)	16gg\	8f/J)
.	.	.	.	.	.	16a\JJ	.	16ff\JJ	.
=113	=113	=113	=113	=113	=113	=113	=113	=113	=113
8C\L	8C\L	8CC\L	[1E/	[1G/	[1c/	4g/	8g\L	8ee\L	8cc\L
16E\LL	16E\LL	16EE\LL	.	.	.	.	8cc\	8bb-\	16gg\LL
16D\JJ	16D\JJ	16DD\JJ	.	.	.	.	.	.	16ff\JJ
8C\L	8C\L	8CC\L	.	.	.	8r	8ee\	8bb-\	8gg\L
16G\LL	16G\LL	16GG\LL	.	.	.	8bb-\	8ee\J	8gg\J	8cc\J
16F\JJ	16F\JJ	16FF\JJ	.	.	.	.	.	.	.
8E\L	8E\L	8EE\L	.	.	.	8bb-\L	8gg\L	8gg\L	8cc\L
8B-\J	8B-\J	8BB-\J	.	.	.	8gg\	8gg\	8ee\	16ccc\LL
.	.	.	.	.	.	.	.	.	16bb-\JJ
16G\LL	16G\LL	16GG\LL	.	.	.	8gg\	8ee\	8ee\	8ccc\L
16F\	16F\	16FF\	.	.	.	.	.	.	.
16E\	16E\	16EE\	.	.	.	8cc\J	8bb-\J	8gg\J	8cc\J
16D\JJ	16D\JJ	16DD\JJ	.	.	.	.	.	.	.
=114	=114	=114	=114	=114	=114	=114	=114	=114	=114
8C\L	8C\L	8CC\L	1E/]	1G/]	1c/]	8ee\L	8bb-\L	8gg\L	8cc\L
16E\LL	16E\LL	16EE\LL	.	.	.	8gg\	8gg\	8bb-\	16gg\LL
16D\JJ	16D\JJ	16DD\JJ	.	.	.	.	.	.	16ff\JJ
8C\L	8C\L	8CC\L	.	.	.	8gg\	8gg\	8bb-\	8gg\L
16G\LL	16G\LL	16GG\LL	.	.	.	8bb-\J	8ee\J	8gg\J	8cc\J
16F\JJ	16F\JJ	16FF\JJ	.	.	.	.	.	.	.
8E\L	8E\L	8EE\L	.	.	.	8bb-\L	8ee\L	8gg\L	8cc\L
8B-\J	8B-\J	8BB-\J	.	.	.	8gg\	8ee\	8ee\	16ccc\LL
.	.	.	.	.	.	.	.	.	16bb-\JJ
16G\LL	16G\LL	16GG\LL	.	.	.	8gg\	8cc\	8ee\	8ccc\L
16A\	16A\	16AA\	.	.	.	.	.	.	.
16B-\	16B-\	16BB-\	.	.	.	8cc\J	8cc\J	8cc\J	16ff\LL
16G\JJ	16G\JJ	16GG\JJ	.	.	.	.	.	.	16gg\JJ
=115	=115	=115	=115	=115	=115	=115	=115	=115	=115
8A/L	8A/L	8AA/L	8A/L	8c/L	8f/L	8f/L	8f/L	8f/L	8ff/L
8FF/	8FF/	8FFF/	16c/LL	16f/LL	16a/LL	16a/LL	16a/LL	16a/LL	8cc/
.	.	.	16B-/JJ	16e/JJ	16g/JJ	16g/JJ	16g/JJ	16g/JJ	.
8AA/	8AA/	8AAA/	8A/L	8f/L	8f/L	8f/L	8f/L	8f/L	8cc/
8C/J	8C/J	8CC/J	16A/LL	16f/LL	16cc/LL	16cc/LL	16cc/LL	16cc/LL	8a/J
.	.	.	16G/JJ	16e/JJ	16b-/JJ	16b-/JJ	16b-/JJ	16b-/JJ	.
8F/L	8F/L	8FF/L	8F/L	8f/L	8a\L	8a\L	8a\L	8a\L	8a/L
8C/	8C/	8CC/	16A/LL	16f/LL	8ff\J	8ff\J	8ff\J	8ff\J	8f/
.	.	.	16G/JJ	16e/JJ	.	.	.	.	.
8AA/	8AA/	8AAA/	8F/L	8f/L	16cc/LL	16cc/LL	16cc/LL	16cc/LL	8f/
.	.	.	.	.	16b-/	16b-/	16b-/	16b-/	.
8C/J	8C/J	8CC/J	16c/LL	16f/LL	16a/	16a/	16a/	16a/	8ff/J
.	.	.	16B-/JJ	16e/JJ	16g/JJ	16g/JJ	16g/JJ	16g/JJ	.
=116	=116	=116	=116	=116	=116	=116	=116	=116	=116
8AA/L	8AA/L	8AAA/L	8c/L	8f/L	8f/L	8f/L	8f/L	8f/L	8ff/L
8FF/	8FF/	8FFF/	16c/LL	16f/LL	16a/LL	16a/LL	16a/LL	16a/LL	8cc/
.	.	.	16B-/JJ	16e/JJ	16g/JJ	16g/JJ	16g/JJ	16g/JJ	.
8AA/	8AA/	8AAA/	8A/L	8f/L	8f/L	8f/L	8f/L	8f/L	8cc/
8C/J	8C/J	8CC/J	16A/LL	16f/LL	16cc/LL	16cc/LL	16cc/LL	16cc/LL	8a/J
.	.	.	16G/JJ	16e/JJ	16b-/JJ	16b-/JJ	16b-/JJ	16b-/JJ	.
8F/L	8F/L	8FF/L	8F/L	8f/L	8a\L	8a\L	8a\L	8a\L	8a/L
8C/	8C/	8CC/	16A/LL	16f/LL	8ff\J	8ff\J	8ff\J	8ff\J	8f/
.	.	.	16G/JJ	16e/JJ	.	.	.	.	.
8AA/	8AA/	8AAA/	8F\L	8f/L	16cc\LL	16cc\LL	16cc\LL	16cc\LL	8f/J
.	.	.	.	.	16dd\	16dd\	16dd\	16dd\	.
8FF/J	8FF/J	8FFF/J	8a\J	8cc/J	16ee\	16ee\	16ee\	16ee\	16cc/LL
.	.	.	.	.	16ff\JJ	16ff\JJ	16ff\JJ	16ff\JJ	16cc/JJ
=117	=117	=117	=117	=117	=117	=117	=117	=117	=117
8C/L	8C/L	8CC/L	8g\	8ee\	16gg\LL	16gg\LL	16gg\LL	16gg\LL	8cc/
.	.	.	.	.	16aa\	16aa\	16aa\	16aa\	.
8EE/	8EE/	8EEE/	4c\	4gg\	16bb-\	16bb-\	16bb-\	16bb-\	8r
.	.	.	.	.	16gg\JJ	16gg\JJ	16gg\JJ	16gg\JJ	.
8FF/	8FF/	8FFF/	.	.	16aa\LL	16aa\LL	16aa\LL	16aa\LL	8r
.	.	.	.	.	16ff\	16ff\	16ff\	16ff\	.
8AA/J	8AA/J	8AAA/J	8a\	8ff\	16cc\	16cc\	16cc\	16cc\	16cc/LL
.	.	.	.	.	16ff\JJ	16ff\JJ	16ff\JJ	16ff\JJ	16cc/JJ
8C/L	8C/L	8CC/L	8g\	8ee\L	16gg\LL	16gg\LL	16gg\LL	16gg\LL	8cc/
.	.	.	.	.	16aa\	16aa\	16aa\	16aa\	.
8EE/	8EE/	8EEE/	4c\	8gg\	16bb-\	16bb-\	16bb-\	16bb-\	8r
.	.	.	.	.	16gg\JJ	16gg\JJ	16gg\JJ	16gg\JJ	.
8FF/	8FF/	8FFF/	.	8ff\	16aa\LL	16aa\LL	16aa\LL	16aa\LL	8r
.	.	.	.	.	16ff\JJ	16ff\JJ	16ff\JJ	16ff\JJ	.
8E/J	8E/J	8EE/J	8c\	8gg\J	8ccc\J	8ccc\J	8ccc\J	8ccc\J	16cc/LL
.	.	.	.	.	.	.	.	.	16cc/JJ
=118	=118	=118	=118	=118	=118	=118	=118	=118	=118
8F/L	8F/L	8FF/L	8f\L	8cc/L	(16bb-\LL	(16bb-\LL	(16bb-\LL	(16bb-\LL	8cc/L
.	.	.	.	.	16aa\)	16aa\)	16aa\	16aa\)	.
8BB-/	8BB-/	8BBB-/	8d\	8b-/	(16gg\	(16gg\	16gg\	(16gg\	16ff/LL
.	.	.	.	.	16ff\JJ)	16ff\JJ)	16ff\JJ)	16ff\JJ)	16cc/JJ
8C/	8C/	8CC/	8c\	8a/	8cc\L	8cc\L	8cc\L	8cc\L	16a/LL
.	.	.	.	.	.	.	.	.	16f/JJ
8CC/J	8CC/J	8CCC/J	8c\J	8g/J	8ee\J	8ee\J	8ee\J	8ee\J	8cc/J
4.FF;/	4.FF;/	4.FFF;/	4.c;\	4.a;/	4.ff;\	4.ff;\	4.ff;\	4.ff;\	4.a;/
==	==	==	==	==	==	==	==	==	==
*-	*-	*-	*-	*-	*-	*-	*-	*-	*-
!!!CDT: 1685/3//-1750/7/28
!!!OCY: Deutschland
!!!ODE: His Royal Highness Christian Ludwig, Margrave of Brandenburg.
!!!ODT: 1717//-1718//
!!!OPC: ?Coethen; ?Cothen; ?Co2then
!!!PPR: Peters
!!!PDT: 1850
!!!PPP: Leipzig
!!!AGN: concerto grosso
!!!AST: baroque, orchestral
!!!AMT: simple duple
!!!SCA: Bach-Werke-Verzeichnis
!!!YOR: Bach Gesellschaft, xix,33
!!!YOY: 1871; although imprint says 1869
!!!AIN: cello; cemb; cbass; fltds; oboe; tromp; viola; violn
!!!EEV: 1.0
!!!RDT: 1994 February 19
!!!YER: 1994 October 22
!!!YEN: United States of America
!!!EFL: 1/3
!!!EED: W.B. Hewlett
!!!VTS: 189627918
